; generated by Slic3r 1.2.9 on 2015-09-08 at 17:16:26

; external perimeters extrusion width = 0.20mm
; perimeters extrusion width = 0.24mm
; infill extrusion width = 0.24mm
; solid infill extrusion width = 0.24mm
; top infill extrusion width = 0.24mm

M107
M104 S195 ; set temperature
G28 ; home all axes
G1 Z5 F5000 ; lift nozzle

M109 S195 ; wait for temperature to be reached
G21 ; set units to millimeters
G90 ; use absolute coordinates
M82 ; use absolute distances for extrusion
G92 E0
G1 Z0.200 F7800.000
G1 X25.151 Y29.026 F7800.000
G1 X-32.849 Y29.026 E1.11936 F1800.000
G1 X-35.060 Y28.629 E1.16271
G1 X-36.995 Y27.488 E1.20606
G1 X-38.412 Y25.746 E1.24942
G1 X-39.206 Y22.770 E1.30885
G1 X-39.508 Y3.664 E1.67763
G1 X-39.508 Y-17.669 E2.08934
G1 X-39.111 Y-19.880 E2.13270
G1 X-37.970 Y-21.815 E2.17605
G1 X-36.520 Y-23.060 E2.21293
G1 X-28.520 Y-28.060 E2.39500
G1 X-26.435 Y-28.895 E2.43835
G1 X-25.151 Y-29.026 E2.46326
G1 X32.849 Y-29.026 E3.58262
G1 X35.060 Y-28.629 E3.62597
G1 X36.995 Y-27.488 E3.66933
G1 X38.412 Y-25.746 E3.71268
G1 X39.206 Y-22.770 E3.77211
G1 X39.508 Y-3.664 E4.14089
G1 X39.508 Y17.669 E4.55261
G1 X39.111 Y19.880 E4.59596
G1 X37.970 Y21.815 E4.63931
G1 X36.520 Y23.060 E4.67619
G1 X28.520 Y28.060 E4.85826
G1 X26.435 Y28.895 E4.90161
G1 X25.181 Y29.023 E4.92594
G92 E0
G1 X-17.351 Y-17.469 F7800.000
G1 X25.049 Y-17.469 E0.81829 F1800.000
G1 X25.049 Y-22.469 E0.91479
G1 X32.649 Y-22.469 E1.06146
G1 X32.649 Y-11.869 E1.26604
G1 X-26.351 Y-11.869 E2.40470
G1 X-26.351 Y3.464 E2.70062
G1 X-32.951 Y3.464 E2.82800
G1 X-32.951 Y-17.469 E3.23200
G1 X-24.951 Y-17.469 E3.38639
G1 X-24.951 Y-22.469 E3.48289
G1 X-17.351 Y-22.469 E3.62956
G1 X-17.351 Y-17.499 E3.72548
G92 E0
G1 X-17.558 Y-21.836 F7800.000
G1 X-17.984 Y-22.261 E0.01167 F1800.000
G1 X-18.491 Y-22.261 E0.02151
G1 X-17.558 Y-21.329 E0.04709
G1 X-17.558 Y-20.821 E0.05693
G1 X-18.999 Y-22.261 E0.09642
G1 X-19.506 Y-22.261 E0.10626
G1 X-17.558 Y-20.314 E0.15967
G1 X-17.558 Y-19.806 E0.16951
G1 X-20.014 Y-22.261 E0.23684
G1 X-20.521 Y-22.261 E0.24668
G1 X-17.558 Y-19.299 E0.32792
G1 X-17.558 Y-18.792 E0.33776
G1 X-21.028 Y-22.261 E0.43292
G1 X-21.536 Y-22.261 E0.44276
G1 X-17.558 Y-18.284 E0.55184
G1 X-17.558 Y-17.777 E0.56168
G1 X-22.043 Y-22.261 E0.68467
G1 X-22.551 Y-22.261 E0.69450
G1 X-12.366 Y-12.077 E0.97381
G1 X-11.859 Y-12.077 E0.98365
G1 X-17.043 Y-17.261 E1.12583
G1 X-16.536 Y-17.261 E1.13567
G1 X-11.351 Y-12.077 E1.27785
G1 X-10.844 Y-12.077 E1.28769
G1 X-16.028 Y-17.261 E1.42988
G1 X-15.521 Y-17.261 E1.43972
G1 X-10.336 Y-12.077 E1.58190
G1 X-9.829 Y-12.077 E1.59174
G1 X-15.013 Y-17.261 E1.73392
G1 X-14.506 Y-17.261 E1.74376
G1 X-9.322 Y-12.077 E1.88594
G1 X-8.814 Y-12.077 E1.89578
G1 X-13.999 Y-17.261 E2.03797
G1 X-13.491 Y-17.261 E2.04781
G1 X-8.307 Y-12.077 E2.18999
G1 X-7.799 Y-12.077 E2.19983
G1 X-12.984 Y-17.261 E2.34201
G1 X-12.476 Y-17.261 E2.35185
G1 X-7.292 Y-12.077 E2.49403
G1 X-6.785 Y-12.077 E2.50387
G1 X-11.969 Y-17.261 E2.64605
G1 X-11.462 Y-17.261 E2.65589
G1 X-6.277 Y-12.077 E2.79808
G1 X-5.770 Y-12.077 E2.80792
G1 X-10.954 Y-17.261 E2.95010
G1 X-10.447 Y-17.261 E2.95994
G1 X-5.262 Y-12.077 E3.10212
G1 X-4.755 Y-12.077 E3.11196
G1 X-9.939 Y-17.261 E3.25414
G1 X-9.432 Y-17.261 E3.26398
G1 X-4.247 Y-12.077 E3.40617
G1 X-3.740 Y-12.077 E3.41600
G1 X-8.925 Y-17.261 E3.55819
G1 X-8.417 Y-17.261 E3.56803
G1 X-3.233 Y-12.077 E3.71021
G1 X-2.725 Y-12.077 E3.72005
G1 X-7.910 Y-17.261 E3.86223
G1 X-7.402 Y-17.261 E3.87207
G1 X-2.218 Y-12.077 E4.01425
G1 X-1.710 Y-12.077 E4.02409
G1 X-6.895 Y-17.261 E4.16628
G1 X-6.387 Y-17.261 E4.17612
G1 X-1.203 Y-12.077 E4.31830
G1 X-0.696 Y-12.077 E4.32814
G1 X-5.880 Y-17.261 E4.47032
G1 X-5.373 Y-17.261 E4.48016
G1 X-0.188 Y-12.077 E4.62234
G1 X0.319 Y-12.077 E4.63218
G1 X-4.865 Y-17.261 E4.77436
G1 X-4.358 Y-17.261 E4.78420
G1 X0.827 Y-12.077 E4.92639
G1 X1.334 Y-12.077 E4.93623
G1 X-3.850 Y-17.261 E5.07841
G1 X-3.343 Y-17.261 E5.08825
G1 X1.841 Y-12.077 E5.23043
G1 X2.349 Y-12.077 E5.24027
G1 X-2.836 Y-17.261 E5.38245
G1 X-2.328 Y-17.261 E5.39229
G1 X2.856 Y-12.077 E5.53448
G1 X3.364 Y-12.077 E5.54432
G1 X-1.821 Y-17.261 E5.68650
G1 X-1.313 Y-17.261 E5.69634
G1 X3.871 Y-12.077 E5.83852
G1 X4.379 Y-12.077 E5.84836
G1 X-0.806 Y-17.261 E5.99054
G1 X-0.299 Y-17.261 E6.00038
G1 X4.886 Y-12.077 E6.14256
G1 X5.393 Y-12.077 E6.15240
G1 X0.209 Y-17.261 E6.29459
G1 X0.716 Y-17.261 E6.30443
G1 X5.901 Y-12.077 E6.44661
G1 X6.408 Y-12.077 E6.45645
G1 X1.224 Y-17.261 E6.59863
G1 X1.731 Y-17.261 E6.60847
G1 X6.916 Y-12.077 E6.75065
G1 X7.423 Y-12.077 E6.76049
G1 X2.239 Y-17.261 E6.90268
G1 X2.746 Y-17.261 E6.91252
G1 X7.930 Y-12.077 E7.05470
G1 X8.438 Y-12.077 E7.06454
G1 X3.253 Y-17.261 E7.20672
G1 X3.761 Y-17.261 E7.21656
G1 X8.945 Y-12.077 E7.35874
G1 X9.453 Y-12.077 E7.36858
G1 X4.268 Y-17.261 E7.51076
G1 X4.776 Y-17.261 E7.52060
G1 X9.960 Y-12.077 E7.66279
G1 X10.468 Y-12.077 E7.67263
G1 X5.283 Y-17.261 E7.81481
G1 X5.790 Y-17.261 E7.82465
G1 X10.975 Y-12.077 E7.96683
G1 X11.482 Y-12.077 E7.97667
G1 X6.298 Y-17.261 E8.11885
G1 X6.805 Y-17.261 E8.12869
G1 X11.990 Y-12.077 E8.27088
G1 X12.497 Y-12.077 E8.28072
G1 X7.313 Y-17.261 E8.42290
G1 X7.820 Y-17.261 E8.43274
G1 X13.005 Y-12.077 E8.57492
G1 X13.512 Y-12.077 E8.58476
G1 X8.327 Y-17.261 E8.72694
G1 X8.835 Y-17.261 E8.73678
G1 X14.019 Y-12.077 E8.87896
G1 X14.527 Y-12.077 E8.88880
G1 X9.342 Y-17.261 E9.03099
G1 X9.850 Y-17.261 E9.04083
G1 X15.034 Y-12.077 E9.18301
G1 X15.542 Y-12.077 E9.19285
G1 X10.357 Y-17.261 E9.33503
G1 X10.865 Y-17.261 E9.34487
G1 X16.049 Y-12.077 E9.48705
G1 X16.556 Y-12.077 E9.49689
G1 X11.372 Y-17.261 E9.63908
G1 X11.879 Y-17.261 E9.64892
G1 X17.064 Y-12.077 E9.79110
G1 X17.571 Y-12.077 E9.80094
G1 X12.387 Y-17.261 E9.94312
G1 X12.894 Y-17.261 E9.95296
G1 X18.079 Y-12.077 E10.09514
G1 X18.586 Y-12.077 E10.10498
G1 X13.402 Y-17.261 E10.24716
G1 X13.909 Y-17.261 E10.25700
G1 X19.094 Y-12.077 E10.39919
G1 X19.601 Y-12.077 E10.40903
G1 X14.416 Y-17.261 E10.55121
G1 X14.924 Y-17.261 E10.56105
G1 X20.108 Y-12.077 E10.70323
G1 X20.616 Y-12.077 E10.71307
G1 X15.431 Y-17.261 E10.85525
G1 X15.939 Y-17.261 E10.86509
G1 X21.123 Y-12.077 E11.00728
G1 X21.631 Y-12.077 E11.01711
G1 X16.446 Y-17.261 E11.15930
G1 X16.954 Y-17.261 E11.16914
G1 X22.138 Y-12.077 E11.31132
G1 X22.645 Y-12.077 E11.32116
G1 X17.461 Y-17.261 E11.46334
G1 X17.968 Y-17.261 E11.47318
G1 X23.153 Y-12.077 E11.61536
G1 X23.660 Y-12.077 E11.62520
G1 X18.476 Y-17.261 E11.76739
G1 X18.983 Y-17.261 E11.77723
G1 X24.168 Y-12.077 E11.91941
G1 X24.675 Y-12.077 E11.92925
G1 X19.491 Y-17.261 E12.07143
G1 X19.998 Y-17.261 E12.08127
G1 X25.182 Y-12.077 E12.22345
G1 X25.690 Y-12.077 E12.23329
G1 X20.505 Y-17.261 E12.37547
G1 X21.013 Y-17.261 E12.38531
G1 X26.197 Y-12.077 E12.52750
G1 X26.705 Y-12.077 E12.53734
G1 X21.520 Y-17.261 E12.67952
G1 X22.028 Y-17.261 E12.68936
G1 X27.212 Y-12.077 E12.83154
G1 X27.720 Y-12.077 E12.84138
G1 X22.535 Y-17.261 E12.98356
G1 X23.042 Y-17.261 E12.99340
G1 X28.227 Y-12.077 E13.13559
G1 X28.734 Y-12.077 E13.14543
G1 X23.550 Y-17.261 E13.28761
G1 X24.057 Y-17.261 E13.29745
G1 X29.242 Y-12.077 E13.43963
G1 X29.749 Y-12.077 E13.44947
G1 X24.565 Y-17.261 E13.59165
G1 X25.072 Y-17.261 E13.60149
G1 X30.257 Y-12.077 E13.74367
G1 X30.764 Y-12.077 E13.75351
G1 X25.257 Y-17.584 E13.90454
G1 X25.257 Y-18.091 E13.91438
G1 X31.271 Y-12.077 E14.07932
G1 X31.779 Y-12.077 E14.08916
G1 X25.257 Y-18.599 E14.26802
G1 X25.257 Y-19.106 E14.27786
G1 X32.286 Y-12.077 E14.47064
G1 X32.442 Y-12.429 E14.47810
G1 X25.257 Y-19.614 E14.67513
G1 X25.257 Y-20.121 E14.68497
G1 X32.442 Y-12.936 E14.88200
G1 X32.442 Y-13.444 E14.89184
G1 X25.257 Y-20.628 E15.08887
G1 X25.257 Y-21.136 E15.09871
G1 X32.442 Y-13.951 E15.29574
G1 X32.442 Y-14.459 E15.30558
G1 X25.257 Y-21.643 E15.50262
G1 X25.257 Y-22.151 E15.51245
G1 X32.442 Y-14.966 E15.70949
G1 X32.442 Y-15.474 E15.71933
G1 X25.654 Y-22.261 E15.90548
G1 X26.161 Y-22.261 E15.91532
G1 X32.442 Y-15.981 E16.08756
G1 X32.442 Y-16.488 E16.09740
G1 X26.668 Y-22.261 E16.25572
G1 X27.176 Y-22.261 E16.26556
G1 X32.442 Y-16.996 E16.40997
G1 X32.442 Y-17.503 E16.41981
G1 X27.683 Y-22.261 E16.55030
G1 X28.191 Y-22.261 E16.56014
G1 X32.442 Y-18.011 E16.67671
G1 X32.442 Y-18.518 E16.68655
G1 X28.698 Y-22.261 E16.78921
G1 X29.206 Y-22.261 E16.79905
G1 X32.442 Y-19.025 E16.88780
G1 X32.442 Y-19.533 E16.89764
G1 X29.713 Y-22.261 E16.97247
G1 X30.220 Y-22.261 E16.98231
G1 X32.442 Y-20.040 E17.04322
G1 X32.442 Y-20.548 E17.05306
G1 X30.728 Y-22.261 E17.10006
G1 X31.235 Y-22.261 E17.10990
G1 X32.442 Y-21.055 E17.14298
G1 X32.442 Y-21.563 E17.15282
G1 X31.743 Y-22.261 E17.17199
G1 X32.250 Y-22.261 E17.18183
G1 X32.442 Y-22.070 E17.18708
G92 E0
G1 X-23.058 Y-22.261 F7800.000
G1 X-12.873 Y-12.077 E0.27930 F1800.000
G1 X-13.381 Y-12.077 E0.28914
G1 X-23.565 Y-22.261 E0.56845
G1 X-24.073 Y-22.261 E0.57829
G1 X-13.888 Y-12.077 E0.85759
G1 X-14.396 Y-12.077 E0.86743
G1 X-24.580 Y-22.261 E1.14674
G1 X-24.743 Y-21.917 E1.15413
G1 X-14.903 Y-12.077 E1.42398
G1 X-15.411 Y-12.077 E1.43382
G1 X-24.743 Y-21.409 E1.68976
G1 X-24.743 Y-20.902 E1.69960
G1 X-15.918 Y-12.077 E1.94162
G1 X-16.425 Y-12.077 E1.95146
G1 X-24.743 Y-20.395 E2.17957
G1 X-24.743 Y-19.887 E2.18941
G1 X-16.933 Y-12.077 E2.40360
G1 X-17.440 Y-12.077 E2.41344
G1 X-24.743 Y-19.380 E2.61372
G1 X-24.743 Y-18.872 E2.62356
G1 X-17.948 Y-12.077 E2.80992
G1 X-18.455 Y-12.077 E2.81976
G1 X-24.743 Y-18.365 E2.99220
G1 X-24.743 Y-17.857 E3.00204
G1 X-18.962 Y-12.077 E3.16057
G1 X-19.470 Y-12.077 E3.17041
G1 X-24.743 Y-17.350 E3.31502
G1 X-25.162 Y-17.261 E3.32332
G1 X-19.977 Y-12.077 E3.46551
G1 X-20.485 Y-12.077 E3.47535
G1 X-25.669 Y-17.261 E3.61753
G1 X-26.177 Y-17.261 E3.62737
G1 X-20.992 Y-12.077 E3.76955
G1 X-21.499 Y-12.077 E3.77939
G1 X-26.684 Y-17.261 E3.92157
G1 X-27.191 Y-17.261 E3.93141
G1 X-22.007 Y-12.077 E4.07360
G1 X-22.514 Y-12.077 E4.08344
G1 X-27.699 Y-17.261 E4.22562
G1 X-28.206 Y-17.261 E4.23546
G1 X-23.022 Y-12.077 E4.37764
G1 X-23.529 Y-12.077 E4.38748
G1 X-28.714 Y-17.261 E4.52966
G1 X-29.221 Y-17.261 E4.53950
G1 X-24.037 Y-12.077 E4.68168
G1 X-24.544 Y-12.077 E4.69152
G1 X-29.728 Y-17.261 E4.83371
G1 X-30.236 Y-17.261 E4.84355
G1 X-25.051 Y-12.077 E4.98573
G1 X-25.559 Y-12.077 E4.99557
G1 X-30.743 Y-17.261 E5.13775
G1 X-31.251 Y-17.261 E5.14759
G1 X-26.066 Y-12.077 E5.28977
G1 X-26.558 Y-12.062 E5.29932
G1 X-31.758 Y-17.261 E5.44192
G1 X-32.266 Y-17.261 E5.45176
G1 X-26.558 Y-11.554 E5.60827
G1 X-26.558 Y-11.047 E5.61811
G1 X-32.738 Y-17.226 E5.78758
G1 X-32.743 Y-16.724 E5.79733
G1 X-26.558 Y-10.540 E5.96693
G1 X-26.558 Y-10.032 E5.97677
G1 X-32.743 Y-16.217 E6.14638
G1 X-32.743 Y-15.709 E6.15622
G1 X-26.558 Y-9.525 E6.32583
G1 X-26.558 Y-9.017 E6.33567
G1 X-32.743 Y-15.202 E6.50527
G1 X-32.743 Y-14.694 E6.51511
G1 X-26.558 Y-8.510 E6.68472
G1 X-26.558 Y-8.002 E6.69456
G1 X-32.743 Y-14.187 E6.86417
G1 X-32.743 Y-13.680 E6.87401
G1 X-26.558 Y-7.495 E7.04361
G1 X-26.558 Y-6.988 E7.05345
G1 X-32.743 Y-13.172 E7.22306
G1 X-32.743 Y-12.665 E7.23290
G1 X-26.558 Y-6.480 E7.40251
G1 X-26.558 Y-5.973 E7.41235
G1 X-32.743 Y-12.157 E7.58195
G1 X-32.743 Y-11.650 E7.59179
G1 X-26.558 Y-5.465 E7.76140
G1 X-26.558 Y-4.958 E7.77124
G1 X-32.743 Y-11.143 E7.94085
G1 X-32.743 Y-10.635 E7.95069
G1 X-26.558 Y-4.451 E8.12029
G1 X-26.558 Y-3.943 E8.13013
G1 X-32.743 Y-10.128 E8.29974
G1 X-32.743 Y-9.620 E8.30958
G1 X-26.558 Y-3.436 E8.47919
G1 X-26.558 Y-2.928 E8.48903
G1 X-32.743 Y-9.113 E8.65863
G1 X-32.743 Y-8.605 E8.66847
G1 X-26.558 Y-2.421 E8.83808
G1 X-26.558 Y-1.914 E8.84792
G1 X-32.743 Y-8.098 E9.01753
G1 X-32.743 Y-7.591 E9.02737
G1 X-26.558 Y-1.406 E9.19697
G1 X-26.558 Y-0.899 E9.20681
G1 X-32.743 Y-7.083 E9.37642
G1 X-32.743 Y-6.576 E9.38626
G1 X-26.558 Y-0.391 E9.55587
G1 X-26.558 Y0.116 E9.56571
G1 X-32.743 Y-6.068 E9.73531
G1 X-32.743 Y-5.561 E9.74515
G1 X-26.558 Y0.624 E9.91476
G1 X-26.558 Y1.131 E9.92460
G1 X-32.743 Y-5.054 E10.09421
G1 X-32.743 Y-4.546 E10.10405
G1 X-26.558 Y1.638 E10.27365
G1 X-26.558 Y2.146 E10.28349
G1 X-32.743 Y-4.039 E10.45310
G1 X-32.743 Y-3.531 E10.46294
G1 X-26.558 Y2.653 E10.63255
G1 X-26.558 Y3.161 E10.64239
G1 X-32.743 Y-3.024 E10.81199
G1 X-32.743 Y-2.516 E10.82183
G1 X-26.970 Y3.256 E10.98015
G1 X-27.478 Y3.256 E10.98999
G1 X-32.743 Y-2.009 E11.13439
G1 X-32.743 Y-1.502 E11.14423
G1 X-27.985 Y3.256 E11.27472
G1 X-28.492 Y3.256 E11.28456
G1 X-32.743 Y-0.994 E11.40113
G1 X-32.743 Y-0.487 E11.41097
G1 X-29.000 Y3.256 E11.51363
G1 X-29.507 Y3.256 E11.52347
G1 X-32.743 Y0.021 E11.61221
G1 X-32.743 Y0.528 E11.62205
G1 X-30.015 Y3.256 E11.69687
G1 X-30.522 Y3.256 E11.70671
G1 X-32.743 Y1.035 E11.76762
G1 X-32.743 Y1.543 E11.77746
G1 X-31.029 Y3.256 E11.82446
G1 X-31.537 Y3.256 E11.83430
G1 X-32.743 Y2.050 E11.86737
G1 X-32.743 Y2.558 E11.87721
G1 X-32.044 Y3.256 E11.89638
G1 Z0.200 F7800.000
G92 E0
G1 X-25.049 Y17.469 F7800.000
G1 X-25.049 Y22.469 E0.09650 F1800.000
G1 X-32.649 Y22.469 E0.24317
G1 X-32.649 Y11.869 E0.44774
G1 X26.351 Y11.869 E1.58641
G1 X26.351 Y-3.464 E1.88233
G1 X32.951 Y-3.464 E2.00970
G1 X32.951 Y17.469 E2.41370
G1 X24.951 Y17.469 E2.56810
G1 X24.951 Y22.469 E2.66459
G1 X17.351 Y22.469 E2.81127
G1 X17.351 Y17.469 E2.90777
G1 X-25.019 Y17.469 E3.72548
G92 E0
G1 X-31.743 Y22.261 F7800.000
G1 X-32.442 Y21.563 E0.01916 F1800.000
G1 X-32.442 Y21.055 E0.02900
G1 X-31.235 Y22.261 E0.06208
G1 X-30.728 Y22.261 E0.07192
G1 X-32.442 Y20.548 E0.11891
G1 X-32.442 Y20.040 E0.12875
G1 X-30.221 Y22.261 E0.18966
G1 X-29.713 Y22.261 E0.19950
G1 X-32.442 Y19.533 E0.27433
G1 X-32.442 Y19.026 E0.28417
G1 X-29.206 Y22.261 E0.37291
G1 X-28.698 Y22.261 E0.38275
G1 X-32.442 Y18.518 E0.48541
G1 X-32.442 Y18.011 E0.49525
G1 X-28.191 Y22.261 E0.61182
G1 X-27.683 Y22.261 E0.62166
G1 X-32.442 Y17.503 E0.75214
G1 X-32.442 Y16.996 E0.76198
G1 X-27.176 Y22.261 E0.90639
G1 X-26.669 Y22.261 E0.91623
G1 X-32.442 Y16.489 E1.07454
G1 X-32.442 Y15.981 E1.08438
G1 X-26.161 Y22.261 E1.25662
G1 X-25.654 Y22.261 E1.26646
G1 X-32.442 Y15.474 E1.45261
G1 X-32.442 Y14.966 E1.46245
G1 X-25.257 Y22.151 E1.65948
G1 X-25.257 Y21.643 E1.66932
G1 X-32.442 Y14.459 E1.86635
G1 X-32.442 Y13.951 E1.87619
G1 X-25.257 Y21.136 E2.07322
G1 X-25.257 Y20.629 E2.08306
G1 X-32.442 Y13.444 E2.28009
G1 X-32.442 Y12.937 E2.28993
G1 X-25.257 Y20.121 E2.48696
G1 X-25.257 Y19.614 E2.49680
G1 X-32.442 Y12.429 E2.69383
G1 X-32.286 Y12.077 E2.70130
G1 X-25.257 Y19.106 E2.89408
G1 X-25.257 Y18.599 E2.90392
G1 X-31.779 Y12.077 E3.08278
G1 X-31.272 Y12.077 E3.09262
G1 X-25.257 Y18.091 E3.25757
G1 X-25.257 Y17.584 E3.26741
G1 X-30.764 Y12.077 E3.41844
G1 X-30.257 Y12.077 E3.42828
G1 X-25.072 Y17.261 E3.57046
G1 X-24.565 Y17.261 E3.58030
G1 X-29.749 Y12.077 E3.72248
G1 X-29.242 Y12.077 E3.73232
G1 X-24.057 Y17.261 E3.87450
G1 X-23.550 Y17.261 E3.88434
G1 X-28.735 Y12.077 E4.02653
G1 X-28.227 Y12.077 E4.03637
G1 X-23.043 Y17.261 E4.17855
G1 X-22.535 Y17.261 E4.18839
G1 X-27.720 Y12.077 E4.33057
G1 X-27.212 Y12.077 E4.34041
G1 X-22.028 Y17.261 E4.48259
G1 X-21.520 Y17.261 E4.49243
G1 X-26.705 Y12.077 E4.63462
G1 X-26.197 Y12.077 E4.64446
G1 X-21.013 Y17.261 E4.78664
G1 X-20.506 Y17.261 E4.79648
G1 X-25.690 Y12.077 E4.93866
G1 X-25.183 Y12.077 E4.94850
G1 X-19.998 Y17.261 E5.09068
G1 X-19.491 Y17.261 E5.10052
G1 X-24.675 Y12.077 E5.24270
G1 X-24.168 Y12.077 E5.25254
G1 X-18.983 Y17.261 E5.39473
G1 X-18.476 Y17.261 E5.40457
G1 X-23.660 Y12.077 E5.54675
G1 X-23.153 Y12.077 E5.55659
G1 X-17.968 Y17.261 E5.69877
G1 X-17.461 Y17.261 E5.70861
G1 X-22.646 Y12.077 E5.85079
G1 X-22.138 Y12.077 E5.86063
G1 X-16.954 Y17.261 E6.00282
G1 X-16.446 Y17.261 E6.01265
G1 X-21.631 Y12.077 E6.15484
G1 X-21.123 Y12.077 E6.16468
G1 X-15.939 Y17.261 E6.30686
G1 X-15.431 Y17.261 E6.31670
G1 X-20.616 Y12.077 E6.45888
G1 X-20.109 Y12.077 E6.46872
G1 X-14.924 Y17.261 E6.61090
G1 X-14.417 Y17.261 E6.62074
G1 X-19.601 Y12.077 E6.76293
G1 X-19.094 Y12.077 E6.77277
G1 X-13.909 Y17.261 E6.91495
G1 X-13.402 Y17.261 E6.92479
G1 X-18.586 Y12.077 E7.06697
G1 X-18.079 Y12.077 E7.07681
G1 X-12.894 Y17.261 E7.21899
