; generated by Slic3r 1.2.9 on 2015-08-22 at 17:32:00

; external perimeters extrusion width = 0.50mm
; perimeters extrusion width = 0.64mm
; infill extrusion width = 0.64mm
; solid infill extrusion width = 0.64mm
; top infill extrusion width = 0.64mm

M107
M104 S195 ; set temperature
G28 ; home all axes
G1 Z5 F5000 ; lift nozzle

M109 S195 ; wait for temperature to be reached
G21 ; set units to millimeters
G90 ; use absolute coordinates
M82 ; use absolute distances for extrusion
G92 E0
G1 Z0.450 F7800.000
G1 E-2.00000 F2400.00000
G92 E0
G1 X-50.852 Y0.344 F7800.000
G1 E2.00000 F2400.00000
G1 X-51.140 Y-42.158 E7.11098 F1800.000
G1 X-51.140 Y-57.204 E8.92026
G1 X-50.743 Y-59.494 E9.19977
G1 X-49.598 Y-61.517 E9.47927
G1 X-47.839 Y-63.036 E9.75878
G1 X-45.671 Y-63.875 E10.03828
G1 X-44.336 Y-64.007 E10.19957
G1 X43.664 Y-64.007 E20.78155
G1 X45.954 Y-63.610 E21.06105
G1 X47.977 Y-62.465 E21.34056 F1800.000
G1 X49.496 Y-60.706 E21.62007
G1 X50.335 Y-58.539 E21.89957
G1 X50.467 Y-57.262 E22.05396
G1 X51.140 Y22.146 E31.60308
G1 X51.140 Y57.204 E35.81875
G1 X50.743 Y59.494 E36.09825
G1 X49.598 Y61.517 E36.37776
G1 X47.839 Y63.036 E36.65727
G1 X45.671 Y63.875 E36.93677
G1 X44.336 Y64.007 E37.09806
G1 X-43.664 Y64.007 E47.68004
G1 X-45.954 Y63.610 E47.95954
G1 X-47.977 Y62.465 E48.23905
G1 X-49.496 Y60.706 E48.51856
G1 X-50.335 Y58.539 E48.79806
G1 X-50.467 Y57.250 E48.95384
G1 X-50.852 Y0.419 E55.78788
G1 E53.78788 F2400.00000
G92 E0
G1 X-41.607 Y44.261 F7800.000
G1 E2.00000 F2400.00000
G1 X-17.111 Y44.261 E4.94557 F1800.000
G1 X-16.091 Y44.209 E5.06838
G1 X-15.033 Y44.046 E5.19708
G1 X-13.998 Y43.778 E5.32577
G1 X-13.019 Y43.414 E5.45131
G1 X-12.486 Y43.169 E5.52184
G1 X-11.584 Y42.669 E5.64587
G1 X-10.696 Y42.051 E5.77598
G1 X-9.893 Y41.362 E5.90316
G1 X-9.156 Y40.587 E6.03174
G1 X-8.516 Y39.762 E6.15739
G1 X-8.186 Y39.261 E6.22952
G1 X-7.685 Y38.358 E6.35364
G1 X-7.259 Y37.364 E6.48374
G1 X-6.950 Y36.380 E6.60777
G1 X-6.823 Y35.833 E6.67530
G1 X-6.722 Y35.268 E6.74427
G1 X-6.618 Y34.242 E6.86827
G1 X-6.608 Y9.261 E9.87227
G1 X5.945 Y9.261 E11.38173
G1 X42.280 Y23.603 E16.07901
G1 X42.280 Y55.147 E19.87214
G1 X-41.607 Y55.147 E29.95944
G1 X-41.607 Y44.336 E31.25950
G1 X-42.410 Y43.457 F7800.000
G1 X-17.132 Y43.457 E34.29923 F1800.000
G1 X-16.173 Y43.409 E34.41466
G1 X-15.196 Y43.258 E34.53355
G1 X-14.239 Y43.010 E34.65244
G1 X-13.327 Y42.672 E34.76940
G1 X-12.849 Y42.452 E34.83262
G1 X-12.009 Y41.986 E34.94811
G1 X-11.188 Y41.415 E35.06841
G1 X-10.447 Y40.779 E35.18582
G1 X-9.766 Y40.063 E35.30464
G1 X-9.170 Y39.294 E35.42167
G1 X-8.874 Y38.844 E35.48641
G1 X-8.407 Y38.004 E35.60195
G1 X-8.013 Y37.085 E35.72225
G1 X-7.726 Y36.168 E35.83775
G1 X-7.610 Y35.671 E35.89913
G1 X-7.518 Y35.157 E35.96196
G1 X-7.421 Y34.201 E36.07743
G1 X-7.411 Y8.457 E39.17313
G1 X6.098 Y8.457 E40.79754
G1 X43.083 Y23.057 E45.57893
G1 X43.083 Y55.950 E49.53440
G1 X-42.410 Y55.950 E59.81493
G1 X-42.410 Y43.532 E61.30821
G1 X-43.214 Y42.654 F7800.000
G1 X-17.152 Y42.654 E64.44209 F1800.000
G1 X-16.255 Y42.608 E64.55016
G1 X-15.358 Y42.470 E64.65923
G1 X-14.480 Y42.243 E64.76831
G1 X-13.635 Y41.929 E64.87670
G1 X-13.213 Y41.735 E64.93261
G1 X-12.435 Y41.303 E65.03955
G1 X-11.681 Y40.778 E65.15005
G1 X-11.001 Y40.195 E65.25769
G1 X-10.376 Y39.539 E65.36674
G1 X-9.824 Y38.826 E65.47515
G1 X-9.561 Y38.428 E65.53251
G1 X-9.130 Y37.650 E65.63948
G1 X-8.768 Y36.805 E65.74998
G1 X-8.501 Y35.957 E65.85693
G1 X-8.315 Y35.045 E65.96882
G1 X-8.225 Y34.160 E66.07575
G1 X-8.214 Y7.654 E69.26316
G1 X6.251 Y7.654 E71.00252
G1 X43.886 Y22.510 E75.86802
G1 X43.886 Y56.754 E79.98583
G1 X-43.214 Y56.754 E90.45958
G1 X-43.214 Y42.729 E92.14609
G1 X-42.781 Y42.904 F7800.000
G1 X-41.114 Y54.274 F7800.000
G1 X-40.733 Y54.655 E92.21110 F1800.000
G1 X-39.593 Y54.655 E92.34878
G1 X-41.114 Y53.133 E92.60850
G1 X-41.114 Y51.993 E92.74618
G1 X-38.452 Y54.655 E93.20061
G1 X-37.312 Y54.655 E93.33829
G1 X-41.114 Y50.852 E93.98743
G1 X-41.114 Y49.711 E94.12511
G1 X-36.171 Y54.655 E94.96895
G1 X-35.031 Y54.655 E95.10663
G1 X-41.114 Y48.571 E96.14518
G1 X-41.114 Y47.430 E96.28286
G1 X-33.890 Y54.655 E97.51612
G1 X-32.749 Y54.655 E97.65380
G1 X-41.114 Y46.290 E99.08177
G1 X-41.114 Y45.149 E99.21945
G1 X-31.609 Y54.655 E100.84212
G1 X-30.468 Y54.655 E100.97980
G1 X-40.370 Y44.753 E102.67007
G1 X-39.229 Y44.753 E102.80775
G1 X-29.328 Y54.655 E104.49801
G1 X-28.187 Y54.655 E104.63569
G1 X-38.088 Y44.753 E106.32596
G1 X-36.948 Y44.753 E106.46363
G1 X-27.047 Y54.655 E108.15390
G1 X-25.906 Y54.655 E108.29158
G1 X-35.807 Y44.753 E109.98184
G1 X-34.667 Y44.753 E110.11952
G1 X-24.765 Y54.655 E111.80979
G1 X-23.625 Y54.655 E111.94747
G1 X-33.526 Y44.753 E113.63773
G1 X-32.386 Y44.753 E113.77541
G1 X-22.484 Y54.655 E115.46567
G1 X-21.344 Y54.655 E115.60335
G1 X-31.245 Y44.753 E117.29362
G1 X-30.104 Y44.753 E117.43130
G1 X-20.203 Y54.655 E119.12156
G1 X-19.063 Y54.655 E119.25924
G1 X-28.964 Y44.753 E120.94950
G1 X-27.823 Y44.753 E121.08718
G1 X-17.922 Y54.655 E122.77745
G1 X-16.781 Y54.655 E122.91513
G1 X-26.683 Y44.753 E124.60539
G1 X-25.542 Y44.753 E124.74307
G1 X-15.641 Y54.655 E126.43334
G1 X-14.500 Y54.655 E126.57101
G1 X-24.402 Y44.753 E128.26128
G1 X-23.261 Y44.753 E128.39896
G1 X-13.360 Y54.655 E130.08922
G1 X-12.219 Y54.655 E130.22690
G1 X-22.120 Y44.753 E131.91717
G1 X-20.980 Y44.753 E132.05485
G1 X-11.079 Y54.655 E133.74511
G1 X-9.938 Y54.655 E133.88279
G1 X-19.839 Y44.753 E135.57305
G1 X-18.699 Y44.753 E135.71073
G1 X-8.797 Y54.655 E137.40100
G1 X-7.657 Y54.655 E137.53868
G1 X-17.558 Y44.753 E139.22894
G1 X-16.459 Y44.712 E139.36176
G1 X-6.516 Y54.655 E141.05903
G1 X-5.376 Y54.655 E141.19671
G1 X-15.446 Y44.584 E142.91589
G1 X-14.509 Y44.381 E143.03166
G1 X-4.235 Y54.655 E144.78556
G1 X-3.095 Y54.655 E144.92324
G1 X-13.633 Y44.116 E146.72231
G1 X-12.810 Y43.799 E146.82885
G1 X-1.954 Y54.655 E148.68201
G1 X-0.813 Y54.655 E148.81969
G1 X-12.048 Y43.420 E150.73762
G1 X-11.322 Y43.005 E150.83855
G1 X0.327 Y54.655 E152.82722
G1 X1.468 Y54.655 E152.96490
G1 X-10.650 Y42.537 E155.03347
G1 X-10.019 Y42.027 E155.13136
G1 X2.608 Y54.655 E157.28703
G1 X3.749 Y54.655 E157.42471
G1 X-9.424 Y41.481 E159.67355
G1 X-8.868 Y40.897 E159.77093
G1 X4.890 Y54.655 E162.11951
G1 X6.030 Y54.655 E162.25719
G1 X-8.365 Y40.259 E164.71465
G1 X-7.893 Y39.591 E164.81342
G1 X7.171 Y54.655 E167.38489
G1 X8.311 Y54.655 E167.52257
G1 X-7.475 Y38.868 E170.21747
G1 X-7.099 Y38.104 E170.32028
G1 X9.452 Y54.655 E173.14559
G1 X10.592 Y54.655 E173.28327
G1 X-6.767 Y37.296 E176.24662
G1 X-6.494 Y36.427 E176.35646
G1 X11.733 Y54.655 E179.46803
G1 X12.874 Y54.655 E179.60571
G1 X-6.289 Y35.492 E182.87704
G1 X-6.163 Y34.477 E183.00041
G1 X14.014 Y54.655 E186.44488
G1 X15.155 Y54.655 E186.58256
G1 X-6.125 Y33.375 E190.21524
G1 X-6.125 Y32.235 E190.35286
G1 X16.295 Y54.655 E194.18017
G1 X17.436 Y54.655 E194.31785
G1 X-6.124 Y31.095 E198.33978
G1 X-6.124 Y29.955 E198.47741
G1 X18.576 Y54.655 E202.69397
G1 X19.717 Y54.655 E202.83165
G1 X-6.123 Y28.814 E207.24284
G1 X-6.123 Y27.674 E207.38046
G1 X20.858 Y54.655 E211.98628
G1 X21.998 Y54.655 E212.12395
G1 X-6.122 Y26.534 E216.92440
G1 X-6.122 Y25.394 E217.06202
G1 X23.139 Y54.655 E222.05709
G1 X24.279 Y54.655 E222.19477
G1 X-6.121 Y24.254 E227.38447
G1 X-6.121 Y23.114 E227.52209
G1 X25.420 Y54.655 E232.90642
G1 X26.560 Y54.655 E233.04410
G1 X-6.120 Y21.974 E238.62305
G1 X-6.120 Y20.834 E238.76068
G1 X27.701 Y54.655 E244.53426
G1 X28.842 Y54.655 E244.67194
G1 X-6.119 Y19.694 E250.64014
G1 X-6.119 Y18.553 E250.77777
G1 X29.982 Y54.655 E256.94060
G1 X31.123 Y54.655 E257.07828
G1 X-6.119 Y17.413 E263.43575
G1 X-6.118 Y16.273 E263.57337
G1 X32.263 Y54.655 E270.12546
G1 X33.404 Y54.655 E270.26314
G1 X-6.118 Y15.133 E277.00986
G1 X-6.117 Y13.993 E277.14748
G1 X34.544 Y54.655 E284.08883
G1 X35.685 Y54.655 E284.22651
G1 X-6.117 Y12.853 E291.36248
G1 X-6.116 Y11.713 E291.50010
G1 X36.826 Y54.655 E298.83070
G1 X37.966 Y54.655 E298.96838
G1 X-6.116 Y10.573 E306.49361
G1 X-5.795 Y9.753 E306.59985
G1 X39.107 Y54.655 E314.26498
G1 X40.247 Y54.655 E314.40266
G1 X-4.654 Y9.753 E322.06778
G1 X-3.514 Y9.753 E322.20546
G1 X41.388 Y54.655 E329.87059
G1 X41.787 Y53.913 E329.97223
G1 X-2.373 Y9.753 E337.51080
G1 X-1.232 Y9.753 E337.64848
G1 X41.787 Y52.773 E344.99234
G1 X41.787 Y51.632 E345.13002
G1 X-0.092 Y9.753 E352.27917
G1 X1.049 Y9.753 E352.41685
G1 X41.787 Y50.492 E359.37130
G1 X41.787 Y49.351 E359.50898
G1 X2.189 Y9.753 E366.26872
G1 X3.330 Y9.753 E366.40640
G1 X41.787 Y48.210 E372.97143
G1 X41.787 Y47.070 E373.10911
G1 X4.471 Y9.753 E379.47944
G1 X5.611 Y9.753 E379.61711
G1 X41.787 Y45.929 E385.79273
G1 X41.787 Y44.789 E385.93041
G1 X7.471 Y10.473 E391.78852
G1 X9.355 Y11.216 F7800.000
G1 X41.787 Y43.648 E397.32493 F1800.000
G1 X41.787 Y42.508 E397.46261
G1 X11.240 Y11.960 E402.67733
G1 X13.124 Y12.704 F7800.000
G1 X41.787 Y41.367 E407.57036 F1800.000
G1 X41.787 Y40.226 E407.70804
G1 X15.009 Y13.448 E412.27938
G1 X16.893 Y14.192 F7800.000
G1 X41.787 Y39.086 E416.52903 F1800.000
G1 X41.787 Y37.945 E416.66671
G1 X18.778 Y14.936 E420.59467
G1 X20.662 Y15.680 F7800.000
G1 X41.787 Y36.805 E424.20094 F1800.000
G1 X41.787 Y35.664 E424.33861
G1 X22.546 Y16.423 E427.62319
G1 X24.431 Y17.167 F7800.000
G1 X41.787 Y34.524 E430.58608 F1800.000
G1 X41.787 Y33.383 E430.72376
G1 X26.315 Y17.911 E433.36495
G1 X28.200 Y18.655 F7800.000
G1 X41.787 Y32.242 E435.68446 F1800.000
G1 X41.787 Y31.102 E435.82213
G1 X30.084 Y19.399 E437.81995
G1 X31.969 Y20.143 F7800.000
G1 X41.787 Y29.961 E439.49607 F1800.000
G1 X41.787 Y28.821 E439.63375
G1 X33.853 Y20.887 E440.98818
G1 X35.737 Y21.630 F7800.000
G1 X41.787 Y27.680 E442.02092 F1800.000
G1 X41.787 Y26.540 E442.15860
G1 X37.622 Y22.374 E442.86965
G1 X39.506 Y23.118 F7800.000
G1 X41.787 Y25.399 E443.25901 F1800.000
G1 X41.391 Y23.862 E443.45061
G1 X41.787 Y24.258 E443.51828
G1 Z0.450 F7800.000
G1 E441.51828 F2400.00000
G92 E0
G1 X41.607 Y-23.603 F7800.000
G1 E2.00000 F2400.00000
G1 X5.272 Y-9.261 E6.69728 F1800.000
G1 X-7.280 Y-9.261 E8.20674
G1 X-7.291 Y-34.242 E11.21075
G1 X-7.395 Y-35.268 E11.33474
G1 X-7.496 Y-35.833 E11.40372
G1 X-7.623 Y-36.380 E11.47125
G1 X-7.932 Y-37.364 E11.59528
G1 X-8.358 Y-38.358 E11.72537
G1 X-8.859 Y-39.261 E11.84950
G1 X-9.189 Y-39.762 E11.92162
G1 X-9.813 Y-40.567 E12.04412
G1 X-10.206 Y-41.002 E12.11466
G1 X-10.954 Y-41.712 E12.23861
G1 X-11.799 Y-42.367 E12.36720
G1 X-12.707 Y-42.934 E12.49589
G1 X-13.667 Y-43.405 E12.62457
G1 X-14.670 Y-43.778 E12.75325
G1 X-15.706 Y-44.046 E12.88193
G1 X-16.764 Y-44.209 E13.01063
G1 X-17.784 Y-44.261 E13.13344
G1 X-42.280 Y-44.261 E16.07901
G1 X-42.280 Y-55.147 E17.38809
G1 X41.607 Y-55.147 E27.47539
G1 X41.607 Y-23.678 E31.25950
G1 X42.410 Y-23.057 F7800.000
G1 X5.425 Y-8.457 E36.04089 F1800.000
G1 X-8.083 Y-8.457 E37.66530
G1 X-8.094 Y-34.201 E40.76101
G1 X-8.191 Y-35.157 E40.87648
G1 X-8.283 Y-35.671 E40.93930
G1 X-8.399 Y-36.168 E41.00069
G1 X-8.686 Y-37.085 E41.11618
G1 X-9.080 Y-38.004 E41.23647
G1 X-9.547 Y-38.844 E41.35202
G1 X-9.843 Y-39.294 E41.41676
G1 X-10.429 Y-40.050 E41.53187
G1 X-10.782 Y-40.440 E41.59509
G1 X-11.478 Y-41.102 E41.71053
G1 X-12.259 Y-41.707 E41.82936
G1 X-13.097 Y-42.230 E41.94824
G1 X-13.985 Y-42.666 E42.06712
G1 X-14.912 Y-43.010 E42.18600
G1 X-15.869 Y-43.258 E42.30488
G1 X-16.846 Y-43.409 E42.42377
G1 X-17.805 Y-43.457 E42.53920
G1 X-43.083 Y-43.457 E45.57893
G1 X-43.083 Y-55.950 E47.08123
G1 X42.410 Y-55.950 E57.36176
G1 X42.410 Y-23.132 E61.30821
G1 X43.214 Y-22.510 F7800.000
G1 X5.578 Y-7.654 E66.17371 F1800.000
G1 X-8.887 Y-7.654 E67.91307
G1 X-8.898 Y-34.160 E71.10047
G1 X-8.987 Y-35.045 E71.20742
G1 X-9.070 Y-35.509 E71.26409
G1 X-9.174 Y-35.957 E71.31934
G1 X-9.440 Y-36.805 E71.42629
G1 X-9.803 Y-37.650 E71.53678
G1 X-10.234 Y-38.428 E71.64375
G1 X-10.497 Y-38.826 E71.70111
G1 X-11.045 Y-39.534 E71.80883
G1 X-11.357 Y-39.879 E71.86474
G1 X-12.002 Y-40.491 E71.97167
G1 X-12.719 Y-41.047 E72.08073
G1 X-13.488 Y-41.527 E72.18980
G1 X-14.302 Y-41.927 E72.29888
G1 X-15.153 Y-42.243 E72.40795
G1 X-16.031 Y-42.470 E72.51703
G1 X-16.927 Y-42.608 E72.62611
G1 X-17.825 Y-42.654 E72.73418
G1 X-43.886 Y-42.654 E75.86806
G1 X-43.886 Y-56.754 E77.56358
G1 X43.214 Y-56.754 E88.03733
G1 X43.214 Y-22.585 E92.14612
G1 X42.732 Y-22.645 F7800.000
G1 X41.114 Y-54.274 F7800.000
G1 X40.733 Y-54.655 E92.21090 F1800.000
G1 X39.597 Y-54.655 E92.34755
G1 X41.114 Y-53.137 E92.60559
G1 X41.114 Y-52.001 E92.74224
G1 X38.461 Y-54.655 E93.19354
G1 X37.324 Y-54.655 E93.33019
G1 X41.114 Y-50.865 E93.97475
G1 X41.114 Y-49.728 E94.11140
G1 X36.188 Y-54.655 E94.94921
G1 X35.052 Y-54.655 E95.08587
G1 X41.114 Y-48.592 E96.11694
G1 X41.114 Y-47.456 E96.25359
G1 X33.915 Y-54.655 E97.47792
G1 X32.779 Y-54.655 E97.61458
G1 X41.114 Y-46.319 E99.03217
G1 X41.114 Y-45.183 E99.16882
G1 X31.643 Y-54.655 E100.77967
G1 X30.507 Y-54.655 E100.91632
G1 X41.114 Y-44.047 E102.72043
G1 X41.114 Y-42.911 E102.85708
G1 X29.370 Y-54.655 E104.85445
G1 X28.234 Y-54.655 E104.99111
G1 X41.114 Y-41.774 E107.18173
G1 X41.114 Y-40.638 E107.31839
G1 X27.098 Y-54.655 E109.70227
G1 X25.961 Y-54.655 E109.83892
G1 X41.114 Y-39.502 E112.41607
G1 X41.114 Y-38.365 E112.55272
G1 X24.825 Y-54.655 E115.32312
G1 X23.689 Y-54.655 E115.45978
G1 X41.114 Y-37.229 E118.42344
G1 X41.114 Y-36.093 E118.56009
G1 X22.552 Y-54.655 E121.71702
G1 X21.416 Y-54.655 E121.85367
G1 X41.114 Y-34.956 E125.20385
G1 X41.114 Y-33.820 E125.34050
G1 X20.280 Y-54.655 E128.88394
G1 X19.143 Y-54.655 E129.02060
G1 X41.114 Y-32.684 E132.75729
G1 X41.114 Y-31.547 E132.89395
G1 X18.007 Y-54.655 E136.82391
G1 X16.871 Y-54.655 E136.96056
G1 X41.114 Y-30.411 E141.08378
G1 X41.114 Y-29.275 E141.22043
G1 X15.734 Y-54.655 E145.53690
G1 X14.598 Y-54.655 E145.67356
G1 X41.114 Y-28.138 E150.18329
G1 X41.114 Y-27.002 E150.31995
G1 X13.462 Y-54.655 E155.02294
G1 X12.325 Y-54.655 E155.15960
G1 X41.114 Y-25.866 E160.05585
G1 X41.114 Y-24.729 E160.19250
G1 X11.189 Y-54.655 E165.28201
G1 X10.053 Y-54.655 E165.41867
G1 X40.906 Y-23.802 E170.66597
G1 X40.091 Y-23.480 E170.77131
G1 X8.916 Y-54.655 E176.07330
G1 X7.780 Y-54.655 E176.20996
G1 X39.276 Y-23.158 E181.56665
G1 X38.462 Y-22.837 E181.67199
G1 X6.644 Y-54.655 E187.08338
G1 X5.507 Y-54.655 E187.22004
G1 X37.647 Y-22.515 E192.68612
G1 X36.832 Y-22.194 E192.79146
G1 X4.371 Y-54.655 E198.31224
G1 X3.235 Y-54.655 E198.44890
G1 X36.017 Y-21.872 E204.02437
G1 X35.203 Y-21.550 E204.12971
G1 X2.098 Y-54.655 E209.75988
G1 X0.962 Y-54.655 E209.89654
G1 X34.388 Y-21.229 E215.58141
G1 X33.573 Y-20.907 E215.68675
G1 X-0.174 Y-54.655 E221.42631
G1 X-1.311 Y-54.655 E221.56297
G1 X32.759 Y-20.586 E227.35723
G1 X31.944 Y-20.264 E227.46256
G1 X-2.447 Y-54.655 E233.31152
G1 X-3.583 Y-54.655 E233.44818
G1 X31.129 Y-19.942 E239.35183
G1 X30.314 Y-19.621 E239.45717
G1 X-4.719 Y-54.655 E245.41552
G1 X-5.856 Y-54.655 E245.55217
G1 X29.500 Y-19.299 E251.56522
G1 X28.685 Y-18.978 E251.67055
G1 X-6.992 Y-54.655 E257.73830
G1 X-8.128 Y-54.655 E257.87495
G1 X27.870 Y-18.656 E263.99739
G1 X27.055 Y-18.334 E264.10273
G1 X-9.265 Y-54.655 E270.27986
G1 X-10.401 Y-54.655 E270.41651
G1 X26.241 Y-18.013 E276.64834
G1 X25.426 Y-17.691 E276.75368
G1 X-11.537 Y-54.655 E283.04021
G1 X-12.674 Y-54.655 E283.17686
G1 X24.611 Y-17.370 E289.51808
G1 X23.797 Y-17.048 E289.62342
G1 X-13.810 Y-54.655 E296.01934
G1 X-14.946 Y-54.655 E296.15599
G1 X22.982 Y-16.726 E302.60661
G1 X22.167 Y-16.405 E302.71194
G1 X-16.083 Y-54.655 E309.21725
G1 X-17.219 Y-54.655 E309.35391
G1 X21.352 Y-16.083 E315.91391
G1 X20.538 Y-15.762 E316.01925
G1 X-18.355 Y-54.655 E322.63395
G1 X-19.492 Y-54.655 E322.77060
G1 X19.723 Y-15.440 E329.44000
G1 X18.908 Y-15.118 E329.54534
G1 X-20.628 Y-54.655 E336.26943
G1 X-21.764 Y-54.655 E336.40609
G1 X18.094 Y-14.797 E343.18488
G1 X17.279 Y-14.475 E343.29021
G1 X-22.901 Y-54.655 E350.12370
G1 X-24.037 Y-54.655 E350.26035
G1 X-13.220 Y-43.838 E352.10004
G1 X-14.920 Y-44.401 E352.31535
G1 X-25.173 Y-54.655 E354.05925
G1 X-26.310 Y-54.655 E354.19591
G1 X-16.322 Y-44.667 E355.89447
G1 X-17.542 Y-44.750 E356.04145
