; generated by Slic3r 1.2.9 on 2015-08-22 at 19:22:27

; external perimeters extrusion width = 0.50mm
; perimeters extrusion width = 0.64mm
; infill extrusion width = 0.64mm
; solid infill extrusion width = 0.64mm
; top infill extrusion width = 0.64mm

M107
M104 S195 ; set temperature
G28 ; home all axes
G1 Z5 F5000 ; lift nozzle

M109 S195 ; wait for temperature to be reached
G21 ; set units to millimeters
G90 ; use absolute coordinates
M82 ; use absolute distances for extrusion
G92 E0
G1 Z0.450 F7800.000
G1 X0.000 Y16.803 F7800.000
G1 X-35.000 Y16.803 E3.68265 F1800.000
G1 X-37.290 Y16.406 E3.92722
G1 X-39.313 Y15.262 E4.17178
G1 X-40.833 Y13.503 E4.41635
G1 X-41.671 Y11.335 E4.66092
G1 X-41.803 Y10.000 E4.80205
G1 X-41.803 Y-10.000 E6.90642
G1 X-41.406 Y-12.290 E7.15098
G1 X-40.262 Y-14.313 E7.39555
G1 X-38.503 Y-15.833 E7.64012
G1 X-36.335 Y-16.671 E7.88469
G1 X-35.000 Y-16.803 E8.02581
G1 X35.000 Y-16.803 E15.39111
G1 X37.290 Y-16.406 E15.63568
G1 X39.313 Y-15.262 E15.88025 F1800.000
G1 X40.833 Y-13.503 E16.12481
G1 X41.671 Y-11.335 E16.36938
G1 X41.803 Y-10.000 E16.51051
G1 X41.803 Y10.000 E18.61488
G1 X41.406 Y12.290 E18.85945
G1 X40.262 Y14.313 E19.10401
G1 X38.503 Y15.833 E19.34858
G1 X36.335 Y16.671 E19.59315
G1 X35.000 Y16.803 E19.73428
G1 X0.075 Y16.803 E23.40903
G1 E18.40903 F2400.00000
G92 E0
G1 X20.559 Y7.294 F7800.000
G1 E5.00000 F2400.00000
G1 X20.559 Y-7.622 E6.56944 F1800.000
G1 X27.621 Y-7.622 E7.31253
G1 X28.783 Y-7.553 E7.43497
G1 X29.834 Y-7.340 E7.54783
G1 X30.760 Y-6.976 E7.65253
G1 X31.553 Y-6.458 E7.75218
G1 X32.190 Y-5.800 E7.84851
G1 X32.647 Y-5.021 E7.94358
G1 X32.917 Y-4.134 E8.04114
G1 X33.005 Y-3.154 E8.14461
G1 X32.943 Y-2.328 E8.23184
G1 X32.753 Y-1.561 E8.31491
G1 X32.434 Y-0.858 E8.39622
G1 X31.987 Y-0.224 E8.47786
G1 X31.427 Y0.320 E8.55990
G1 X30.773 Y0.751 E8.64238
G1 X29.872 Y1.137 E8.74550
G1 X33.949 Y7.294 E9.52244
G1 X30.675 Y7.294 E9.86685
G1 X27.031 Y1.499 E10.58712
G1 X23.357 Y1.499 E10.97374
G1 X23.357 Y7.294 E11.58348
G1 X20.634 Y7.294 E11.86999
G1 X20.059 Y7.294 F7800.000
G1 X18.952 Y3.237 F7800.000
G1 X11.704 Y3.237 E12.63263 F1800.000
G1 X11.704 Y2.431 E12.71746
G1 X18.952 Y2.431 E13.48010
G1 X18.952 Y3.162 E13.55705
G1 X19.025 Y1.627 F7800.000
G1 X19.025 Y-2.410 E13.98180 F1800.000
G1 X10.900 Y-2.410 E14.83660
G1 X10.900 Y-4.369 E15.04273
G1 X19.755 Y-4.369 E15.97444
G1 X19.755 Y4.040 E16.85924
G1 X10.900 Y4.040 E17.79095
G1 X10.900 Y1.627 E18.04485
G1 X18.950 Y1.627 E18.89176
G1 E13.89176 F2400.00000
G92 E0
G1 X5.692 Y3.119 F7800.000
G1 E5.00000 F2400.00000
G1 X2.192 Y-0.988 E5.56779 F1800.000
G1 X5.692 Y-4.563 E6.09418
G1 X5.692 Y3.044 E6.89461
G1 X6.496 Y5.301 F7800.000
G1 X1.105 Y-1.026 E7.76918 F1800.000
G1 X6.496 Y-6.532 E8.57999
G1 X6.496 Y5.226 E9.81718
G1 E4.81718 F2400.00000
G92 E0
G1 X-10.622 Y7.943 F7800.000
G1 E5.00000 F2400.00000
G1 X-16.649 Y7.943 E5.63413 F1800.000
G1 X-15.417 Y4.814 E5.98801
G1 X-11.847 Y4.814 E6.36367
G1 X-10.649 Y7.873 E6.70937
G1 X-1.553 Y7.943 F7800.000
G1 X-1.553 Y3.586 E7.16780 F1800.000
G1 X2.048 Y7.943 E7.76256
G1 X-1.478 Y7.943 E8.13359
G1 X24.964 Y7.943 F7800.000
G1 X24.964 Y3.106 E8.64259 F1800.000
G1 X26.144 Y3.106 E8.76673
G1 X29.186 Y7.943 E9.36800
G1 X25.039 Y7.943 E9.80431
G1 X24.160 Y8.097 F7800.000
G1 X24.160 Y2.302 E10.41406 F1800.000
G1 X26.587 Y2.302 E10.66943
G1 X30.231 Y8.097 E11.38971
G1 X33.747 Y8.097 E11.75956
G1 X33.747 Y8.747 E11.82789
G1 X-33.747 Y8.747 E18.92942
G1 X-33.747 Y8.097 E18.99775
G1 X-26.305 Y8.097 E19.78075
G1 X-25.040 Y8.025 E19.91403
G1 X-23.844 Y7.795 E20.04217
G1 X-22.754 Y7.392 E20.16443
G1 X-22.187 Y7.047 E20.23429
G1 X-21.922 Y7.273 E20.27098
G1 X-22.258 Y8.097 E20.36465
G1 X-17.573 Y8.097 E20.85758
G1 X-15.964 Y4.010 E21.31973
G1 X-11.298 Y4.010 E21.81066
G1 X-9.699 Y8.097 E22.27243
G1 X-2.356 Y8.097 E23.04503
G1 X-2.356 Y2.093 E23.67683
G1 X-1.981 Y1.807 E23.72643
G1 X3.218 Y8.097 E24.58512
G1 X24.085 Y8.097 E26.78074
G1 E21.78074 F2400.00000
G92 E0
G1 X-7.565 Y-1.375 F7800.000
G1 E5.00000 F2400.00000
G1 X-7.955 Y-1.300 E5.04187 F1800.000
G1 X-10.620 Y-7.943 E5.79502
G1 X-7.565 Y-7.943 E6.11646
G1 X-7.565 Y-1.450 E6.79967
G1 X-6.761 Y2.787 F7800.000
G1 X-7.152 Y2.862 E6.84153 F1800.000
G1 X-11.808 Y-8.747 E8.15756
G1 X-6.761 Y-8.747 E8.68853
G1 X-6.761 Y2.712 E9.89417
G1 E4.89417 F2400.00000
G92 E0
G1 X-1.553 Y-5.262 F7800.000
G1 E5.00000 F2400.00000
G1 X-1.553 Y-7.943 E5.28212 F1800.000
G1 X1.021 Y-7.943 E5.55294
G1 X-1.501 Y-5.316 E5.93612
G1 X-2.356 Y-3.265 F7800.000
G1 X-2.356 Y-8.747 E6.51290 F1800.000
G1 X2.906 Y-8.747 E7.06660
G1 X-2.304 Y-3.319 E7.85825
G1 E2.85825 F2400.00000
G92 E0
G1 X7.299 Y-7.622 F7800.000
G1 E5.00000 F2400.00000
G1 X18.817 Y-7.622 E6.21191 F1800.000
G1 X18.817 Y-5.172 E6.46970
G1 X10.097 Y-5.172 E7.38720
G1 X10.097 Y-1.606 E7.76241
G1 X18.221 Y-1.606 E8.61721
G1 X18.221 Y0.824 E8.87289
G1 X10.097 Y0.824 E9.72769
G1 X10.097 Y4.844 E10.15067
G1 X19.224 Y4.844 E11.11100
G1 X19.224 Y7.294 E11.36879
G1 X7.299 Y7.294 E12.62352
G1 X7.299 Y-7.547 E14.18507
G1 X7.299 Y-8.122 F7800.000
G1 X6.439 Y-7.622 F7800.000
G1 X0.017 Y-1.063 E15.15086 F1800.000
G1 X7.138 Y7.294 E16.30606
G1 X3.596 Y7.294 E16.67869
G1 X-1.854 Y0.700 E17.57883
G1 X-3.160 Y1.695 E17.75155
G1 X-3.160 Y7.294 E18.34068
G1 X-9.151 Y7.294 E18.97104
G1 X-10.750 Y3.207 E19.43281
G1 X-16.511 Y3.207 E20.03902
G1 X-18.120 Y7.294 E20.50117
G1 X-21.063 Y7.294 E20.81080
G1 X-14.985 Y-7.622 E22.50552
G1 X-12.222 Y-7.622 E22.79623
G1 X-6.348 Y7.024 E24.45660
G1 X-5.958 Y6.949 E24.49847
G1 X-5.958 Y-7.622 E26.03160
G1 X-3.160 Y-7.622 E26.32600
G1 X-3.160 Y-1.268 E26.99460
G1 X2.940 Y-7.622 E27.92143
G1 X6.364 Y-7.622 E28.28160
G1 X6.873 Y-7.375 F7800.000
G1 X-16.590 Y-7.943 F7800.000
G1 X-19.855 Y0.072 E29.19228 F1800.000
G1 X-20.701 Y-0.976 E29.33396
G1 X-20.593 Y-1.134 E29.35406
G1 X-20.225 Y-1.975 E29.45058
G1 X-20.014 Y-2.862 E29.54658
G1 X-19.937 Y-3.911 E29.65721
G1 X-20.412 Y-6.205 E29.90373
G1 X-21.925 Y-7.943 E30.14614
G1 X-16.665 Y-7.943 E30.69960
G1 X-15.395 Y-8.747 F7800.000
G1 X-19.714 Y1.853 E31.90396 F1800.000
G1 X-20.058 Y1.833 E31.94025
G1 X-20.248 Y1.149 E32.01493
G1 X-20.647 Y0.370 E32.10708
G1 X-21.202 Y-0.318 E32.20010
G1 X-21.789 Y-0.806 E32.28034
G1 X-21.299 Y-1.525 E32.37184
G1 X-20.990 Y-2.231 E32.45296
G1 X-20.810 Y-2.985 E32.53457
G1 X-20.747 Y-3.857 E32.62657
G1 X-21.157 Y-5.836 E32.83920
G1 X-22.489 Y-7.368 E33.05284
G1 X-24.473 Y-8.189 E33.27876
G1 X-25.479 Y-8.288 E33.38513
G1 X-25.457 Y-8.747 E33.43342
G1 X-15.470 Y-8.747 E34.48425
G1 X-32.471 Y-7.622 F7800.000
G1 X-26.914 Y-7.622 E35.06896 F1800.000
G1 X-24.670 Y-7.401 E35.30620
G1 X-22.971 Y-6.698 E35.49969
G1 X-21.901 Y-5.467 E35.67132
G1 X-21.556 Y-3.804 E35.85004
G1 X-21.607 Y-3.109 E35.92342
G1 X-21.755 Y-2.487 E35.99064
G1 X-22.005 Y-1.915 E36.05636
G1 X-22.357 Y-1.399 E36.12204
G1 X-22.798 Y-0.953 E36.18803
G1 X-23.186 Y-0.683 E36.23778
G1 X-22.345 Y-0.224 E36.33856
G1 X-21.777 Y0.248 E36.41626
G1 X-21.325 Y0.810 E36.49216
G1 X-21.000 Y1.443 E36.56701
G1 X-20.807 Y2.138 E36.64286
G1 X-20.741 Y2.867 E36.71992
G1 X-20.837 Y3.867 E36.82566
G1 X-21.125 Y4.748 E36.92310
G1 X-21.609 Y5.518 E37.01879
G1 X-22.280 Y6.162 E37.11669
G1 X-23.106 Y6.666 E37.21846
G1 X-24.061 Y7.019 E37.32559
G1 X-25.139 Y7.226 E37.44113
G1 X-26.328 Y7.294 E37.56636
G1 X-32.471 Y7.294 E38.21280
G1 X-32.471 Y-7.547 E39.77435
G1 X-32.471 Y-8.122 F7800.000
G1 X29.080 Y-8.313 F7800.000
G1 X29.123 Y-8.747 E39.82023 F1800.000
G1 X33.747 Y-8.747 E40.30669
G1 X33.747 Y-5.437 E40.65497
G1 X33.391 Y-5.340 E40.69376
G1 X32.834 Y-6.290 E40.80957
G1 X32.068 Y-7.082 E40.92552
G1 X31.131 Y-7.694 E41.04334
G1 X30.062 Y-8.113 E41.16408
G1 X29.153 Y-8.298 E41.26172
G1 E36.26172 F2400.00000
G92 E0
G1 X32.943 Y1.087 F7800.000
G1 E5.00000 F2400.00000
G1 X32.943 Y2.243 E5.12163 F1800.000
G1 X32.600 Y2.347 E5.15933
G1 X32.197 Y1.737 E5.23622
G1 X32.439 Y1.578 E5.26671
G1 X32.889 Y1.140 E5.33285
G1 X31.082 Y1.510 F7800.000
G1 X31.933 Y0.949 E5.44006 F1800.000
G1 X32.600 Y0.300 E5.53793
G1 X33.134 Y-0.457 E5.63541
G1 X33.366 Y-0.969 E5.69459
G1 X33.747 Y-0.887 E5.73551
G1 X33.747 Y4.912 E6.34562
G1 X33.403 Y5.015 E6.38332
G1 X31.124 Y1.572 E6.81780
G1 X34.550 Y9.550 F7800.000
G1 X-34.550 Y9.550 E14.08840 F1800.000
G1 X-34.550 Y-9.550 E16.09807
G1 X34.550 Y-9.550 E23.36867
G1 X34.550 Y9.475 E25.37045
G1 X34.117 Y9.300 F7800.000
G1 E20.37045 F2400.00000
G92 E0
G1 X28.517 Y-2.756 F7800.000
G1 E5.00000 F2400.00000
G1 X28.392 Y-2.671 E5.01594 F1800.000
G1 X28.225 Y-2.602 E5.03495
G1 X27.930 Y-2.540 E5.06668
G1 X27.435 Y-2.509 E5.11883
G1 X24.964 Y-2.509 E5.37886
G1 X24.964 Y-3.595 E5.49309
G1 X27.387 Y-3.594 E5.74808
G1 X27.908 Y-3.566 E5.80298
G1 X28.254 Y-3.501 E5.84002
G1 X28.555 Y-3.391 E5.87368
G1 X28.581 Y-3.122 E5.90216
G1 X28.538 Y-2.828 E5.93337
G1 X29.185 Y-3.867 F7800.000
G1 X29.285 Y-3.701 E5.95378 F1800.000
G1 X29.353 Y-3.480 E5.97803
G1 X29.387 Y-3.126 E6.01551
G1 X29.356 Y-2.764 E6.05375
G1 X29.277 Y-2.491 E6.08358
G1 X29.163 Y-2.288 E6.10813
G1 X29.001 Y-2.114 E6.13314
G1 X28.774 Y-1.959 E6.16204
G1 X28.462 Y-1.831 E6.19754
G1 X28.039 Y-1.742 E6.24308
G1 X27.460 Y-1.706 E6.30407
G1 X24.160 Y-1.706 E6.65126
G1 X24.160 Y-4.398 E6.93459
G1 X27.409 Y-4.397 E7.27644
G1 X28.005 Y-4.365 E7.33918
G1 X28.467 Y-4.278 E7.38870
G1 X28.805 Y-4.155 E7.42658
G1 X29.037 Y-4.013 E7.45508
G1 X29.132 Y-3.919 E7.46916
G1 X23.357 Y-5.202 F7800.000
G1 X27.431 Y-5.201 E7.89787 F1800.000
G1 X28.101 Y-5.164 E7.96845
G1 X28.680 Y-5.056 E8.03046
G1 X29.156 Y-4.882 E8.08375
G1 X29.535 Y-4.650 E8.13045
G1 X29.822 Y-4.368 E8.17282
G1 X30.024 Y-4.031 E8.21417
G1 X30.145 Y-3.639 E8.25734
G1 X30.194 Y-3.130 E8.31114
G1 X30.150 Y-2.616 E8.36546
G1 X30.023 Y-2.179 E8.41334
G1 X29.817 Y-1.812 E8.45759
G1 X29.529 Y-1.501 E8.50224
G1 X29.157 Y-1.247 E8.54959
G1 X28.699 Y-1.060 E8.60157
G1 X28.147 Y-0.943 E8.66094
G1 X27.485 Y-0.902 E8.73077
G1 X23.357 Y-0.902 E9.16512
G1 X23.357 Y-5.127 E9.60965
G1 X23.790 Y-4.952 F7800.000
G1 E4.60965 F2400.00000
G92 E0
G1 X-12.839 Y0.022 F7800.000
G1 E5.00000 F2400.00000
G1 X-14.412 Y0.022 E5.16545 F1800.000
G1 X-13.626 Y-2.006 E5.39428
G1 X-12.866 Y-0.048 E5.61525
G1 X-11.666 Y0.826 F7800.000
G1 X-15.585 Y0.826 E6.02758 F1800.000
G1 X-14.032 Y-3.181 E6.47974
G1 X-13.626 Y-4.304 E6.60540
G1 X-13.367 Y-3.559 E6.68837
G1 X-11.693 Y0.756 E7.17537
G1 X-12.126 Y0.631 F7800.000
G1 E2.17537 F2400.00000
G92 E0
G1 X-25.244 Y2.578 F7800.000
G1 E5.00000 F2400.00000
G1 X-25.187 Y2.862 E5.03047 F1800.000
G1 X-25.205 Y3.075 E5.05288
G1 X-25.462 Y3.165 E5.08160
G1 X-25.860 Y3.235 E5.12413
G1 X-26.491 Y3.267 E5.19058
G1 X-28.067 Y3.267 E5.35637
G1 X-28.067 Y2.321 E5.45594
G1 X-26.643 Y2.323 E5.60570
G1 X-25.589 Y2.430 E5.71715
G1 X-25.313 Y2.549 E5.74882
G1 X-28.870 Y1.516 F7800.000
G1 X-26.602 Y1.519 E5.98747 F1800.000
G1 X-25.386 Y1.643 E6.11608
G1 X-24.750 Y1.916 E6.18886
G1 X-24.497 Y2.217 E6.23030
G1 X-24.377 Y2.816 E6.29448
G1 X-24.402 Y3.120 E6.32662
G1 X-24.477 Y3.384 E6.35549
G1 X-24.576 Y3.561 E6.37682
G1 X-24.705 Y3.695 E6.39637
G1 X-24.910 Y3.823 E6.42182
G1 X-25.257 Y3.945 E6.46055
G1 X-25.770 Y4.035 E6.51533
G1 X-26.471 Y4.070 E6.58913
G1 X-28.870 Y4.070 E6.84158
G1 X-28.870 Y1.591 E7.10245
G1 X-29.673 Y0.711 F7800.000
G1 X-26.560 Y0.716 E7.43000 F1800.000
G1 X-25.182 Y0.857 E7.57576
G1 X-24.258 Y1.253 E7.68157
G1 X-23.749 Y1.858 E7.76477
G1 X-23.567 Y2.769 E7.86250
G1 X-23.608 Y3.264 E7.91482
G1 X-23.731 Y3.695 E7.96187
G1 X-23.925 Y4.042 E8.00380
G1 X-24.194 Y4.324 E8.04477
G1 X-24.560 Y4.551 E8.09012
G1 X-25.053 Y4.725 E8.14506
G1 X-25.680 Y4.835 E8.21209
G1 X-26.451 Y4.874 E8.29325
G1 X-29.673 Y4.874 E8.63235
G1 X-29.673 Y0.786 E9.06241
G1 X-29.241 Y0.962 F7800.000
G1 E4.06241 F2400.00000
G92 E0
G1 X-28.870 Y-2.474 F7800.000
G1 E5.00000 F2400.00000
G1 X-28.870 Y-4.398 E5.20252 F1800.000
G1 X-26.941 Y-4.398 E5.40550
G1 X-26.366 Y-4.373 E5.46600
G1 X-25.912 Y-4.304 E5.51434
G1 X-25.581 Y-4.207 E5.55064
G1 X-25.382 Y-4.108 E5.57396
G1 X-25.297 Y-4.037 E5.58567
G1 X-25.250 Y-3.966 E5.59467
G1 X-25.201 Y-3.816 E5.61119
G1 X-25.176 Y-3.541 E5.64032
G1 X-25.202 Y-3.225 E5.67364
G1 X-25.264 Y-3.017 E5.69646
G1 X-25.338 Y-2.891 E5.71182
G1 X-25.438 Y-2.792 E5.72671
G1 X-25.618 Y-2.685 E5.74869
G1 X-25.922 Y-2.581 E5.78253
G1 X-26.364 Y-2.504 E5.82970
G1 X-26.968 Y-2.474 E5.89332
G1 X-28.795 Y-2.474 E6.08557
G1 X-29.673 Y-1.670 F7800.000
G1 X-29.673 Y-5.202 E6.45718 F1800.000
G1 X-26.923 Y-5.201 E6.74657
G1 X-26.289 Y-5.173 E6.81340
G1 X-25.738 Y-5.090 E6.87199
G1 X-25.287 Y-4.958 E6.92140
G1 X-24.940 Y-4.786 E6.96217
G1 X-24.692 Y-4.578 E6.99619
G1 X-24.520 Y-4.319 E7.02895
G1 X-24.409 Y-3.980 E7.06647
G1 X-24.369 Y-3.544 E7.11256
G1 X-24.409 Y-3.076 E7.16195
G1 X-24.521 Y-2.696 E7.20366
G1 X-24.698 Y-2.394 E7.24046
G1 X-24.944 Y-2.150 E7.27691
G1 X-25.280 Y-1.952 E7.31792
G1 X-25.722 Y-1.800 E7.36709
G1 X-26.275 Y-1.704 E7.42615
G1 X-26.948 Y-1.670 E7.49706
G1 X-29.598 Y-1.670 E7.77596
G1 X-29.423 Y-2.103 F7800.000
G1 X-28.468 Y-3.436 F7800.000
G1 X-26.468 Y-3.438 E8.22215 F1800.000
G1 X-25.586 Y-3.458 E8.41901
G1 E3.41901 F2400.00000
G92 E0
G1 X-25.869 Y-8.537 F7800.000
G1 E5.00000 F2400.00000
G1 X-26.895 Y-8.586 E5.22898 F1800.000
G1 X-32.873 Y-8.586 E6.56271
G1 X-33.442 Y-8.442 E6.69364
G1 X-33.511 Y-8.024 E6.78818
G1 X-33.511 Y7.695 E10.29493
G1 X-21.791 Y6.857 F7800.000
G1 X-21.155 Y5.919 E10.41413 F1800.000
G1 X-20.658 Y4.953 E10.52849
G1 X-20.297 Y3.964 E10.63922
G1 X-20.034 Y2.897 E10.75481
G1 X-19.934 Y2.243 E10.82446
G1 X-20.091 Y-0.860 F7800.000
G1 X-19.701 Y-1.784 E10.93000 F1800.000
G1 X-19.390 Y-2.747 E11.03641
G1 X-19.080 Y-4.066 E11.17905
G1 X-20.425 Y-7.260 F7800.000
G1 X-17.605 Y-7.260 E11.52625 F1800.000
G1 X-18.661 Y-4.670 E11.87063
G1 X-19.434 Y-4.851 E11.96846
G1 X-19.780 Y-6.518 E12.17814
G1 X-20.376 Y-7.204 E12.28995
G1 X-15.026 Y-8.586 F7800.000
G1 X-12.176 Y-8.586 E12.92579 F1800.000
G1 X-9.610 Y-7.260 F7800.000
G1 X-8.248 Y-7.260 E13.16891 F1800.000
G1 X-8.248 Y-5.846 E13.42120
G1 X-8.986 Y-5.704 E13.55538
G1 X-9.582 Y-7.191 E13.84122
G1 X-8.487 Y-5.105 F7800.000
G1 X-7.988 Y-2.520 E14.11823 F1800.000
G1 X-7.684 Y-0.943 F7800.000
G1 X-7.185 Y1.642 E14.39524 F1800.000
G1 X-6.880 Y3.219 F7800.000
G1 X-6.381 Y5.804 E14.67225 F1800.000
G1 E9.67225 F2400.00000
G92 E0
G1 X-0.870 Y5.484 F7800.000
G1 E5.00000 F2400.00000
G1 X0.598 Y7.260 E5.44296 F1800.000
G1 X-0.870 Y7.260 E5.72517
G1 X-0.870 Y5.559 E6.05218
G1 E1.05218 F2400.00000
G92 E0
G1 X3.117 Y-0.956 F7800.000
G1 E5.00000 F2400.00000
G1 X5.009 Y-2.889 E5.33524 F1800.000
G1 X5.009 Y1.265 E5.85003
G1 X3.165 Y-0.899 E6.20233
G1 E1.20233 F2400.00000
G92 E0
G1 X-0.870 Y-7.260 F7800.000
G1 E5.00000 F2400.00000
G1 X-0.581 Y-7.260 E5.03039 F1800.000
G1 X-0.870 Y-6.959 E5.07428
G1 X-0.870 Y-7.185 E5.09805
G1 X-2.758 Y-8.586 F7800.000
G1 X-6.359 Y-8.586 E5.90146 F1800.000
G1 X3.309 Y-8.586 F7800.000
G1 X19.219 Y-8.586 E9.45071 F1800.000
G1 X21.261 Y-8.160 E9.91609
G1 X19.688 Y-4.771 F7800.000
G1 X19.688 Y-8.488 E10.74545 F1800.000
G1 X20.157 Y-8.586 E10.85237
G1 X27.633 Y-8.586 E12.52015
G1 X28.700 Y-8.555 E12.75827
G1 X31.517 Y-8.152 F7800.000
G1 X33.345 Y-7.608 E13.18366 F1800.000
G1 X33.322 Y-7.449 F7800.000
G1 X33.208 Y-6.678 E13.26565 F1800.000
G1 X33.325 Y-6.286 E13.30872
G1 X33.625 Y-4.987 F7800.000
G1 X33.730 Y-4.249 E13.47511 F1800.000
G1 X33.778 Y-3.129 E13.72506
G1 X33.744 Y-2.233 E13.92508
G1 X33.636 Y-1.322 E14.12992
G1 E9.12992 F2400.00000
G92 E0
G1 X25.647 Y3.788 F7800.000
G1 E5.00000 F2400.00000
G1 X25.766 Y3.788 E5.01804 F1800.000
G1 X27.949 Y7.260 E5.63643
G1 X25.647 Y7.260 E5.98365
G1 X25.647 Y3.863 E6.49584
G1 E1.49584 F2400.00000
G92 E0
G1 X19.891 Y4.442 F7800.000
G1 E5.00000 F2400.00000
G1 X19.891 Y7.695 E5.34232 F1800.000
G1 X19.354 Y-3.389 F7800.000
G1 X11.302 Y-3.389 E7.13849 F1800.000
G1 E2.13849 F2400.00000
G92 E0
G1 X-14.952 Y5.496 F7800.000
G1 E5.00000 F2400.00000
G1 X-12.313 Y5.496 E5.27813 F1800.000
G1 X-11.623 Y7.260 E5.47772
G1 X-15.646 Y7.260 E5.90174
G1 X-14.979 Y5.566 E6.09360
M104 S185 ; set temperature
G1 Z0.800 F7800.000
