; generated by Slic3r 1.2.9 on 2015-08-22 at 19:02:23

; external perimeters extrusion width = 0.50mm
; perimeters extrusion width = 0.64mm
; infill extrusion width = 0.64mm
; solid infill extrusion width = 0.64mm
; top infill extrusion width = 0.64mm

M107
M104 S195 ; set temperature
G28 ; home all axes
G1 Z5 F5000 ; lift nozzle

M109 S195 ; wait for temperature to be reached
G21 ; set units to millimeters
G90 ; use absolute coordinates
M82 ; use absolute distances for extrusion
G92 E0
G1 Z0.450 F7800.000
G1 X0.000 Y16.803 F7800.000
G1 X-20.000 Y16.803 E2.10437 F1800.000
G1 X-22.290 Y16.406 E2.34894
G1 X-24.313 Y15.262 E2.59351
G1 X-25.833 Y13.503 E2.83807
G1 X-26.671 Y11.335 E3.08264
G1 X-26.803 Y10.000 E3.22377
G1 X-26.803 Y-10.000 E5.32814
G1 X-26.406 Y-12.290 E5.57271
G1 X-25.262 Y-14.313 E5.81727
G1 X-23.503 Y-15.833 E6.06184
G1 X-21.335 Y-16.671 E6.30641
G1 X-20.000 Y-16.803 E6.44754
G1 X20.000 Y-16.803 E10.65628
G1 X22.290 Y-16.406 E10.90085
G1 X24.313 Y-15.262 E11.14541 F1800.000
G1 X25.833 Y-13.503 E11.38998
G1 X26.671 Y-11.335 E11.63455
G1 X26.803 Y-10.000 E11.77568
G1 X26.803 Y10.000 E13.88005
G1 X26.406 Y12.290 E14.12461
G1 X25.262 Y14.313 E14.36918
G1 X23.503 Y15.833 E14.61375
G1 X21.335 Y16.671 E14.85832
G1 X20.000 Y16.803 E14.99944
G1 X0.075 Y16.803 E17.09592
G1 E15.09592 F2400.00000
G92 E0
G1 X-17.943 Y7.943 F7800.000
G1 E2.00000 F2400.00000
G1 X-17.943 Y-7.943 E3.67153 F1800.000
G1 X17.943 Y-7.943 E7.44743
G1 X17.943 Y7.943 E9.11896
G1 X-17.868 Y7.943 E12.88697
G1 X-18.747 Y8.747 F7800.000
G1 X-18.747 Y-8.747 E14.72758 F1800.000
G1 X18.747 Y-8.747 E18.67255
G1 X18.747 Y8.747 E20.51315
G1 X-18.672 Y8.747 E24.45023
G1 X-19.550 Y9.550 F7800.000
G1 X-19.550 Y-9.550 E26.45991 F1800.000
G1 X19.550 Y-9.550 E30.57395
G1 X19.550 Y9.550 E32.58362
G1 X-19.475 Y9.550 E36.68978
G1 X-19.300 Y9.117 F7800.000
G1 X-17.070 Y7.451 F7800.000
G1 X-17.451 Y7.070 E36.74666 F1800.000
G1 X-17.451 Y5.929 E36.86711
G1 X-15.929 Y7.451 E37.09434
G1 X-14.789 Y7.451 E37.21479
G1 X-17.451 Y4.789 E37.61236
G1 X-17.451 Y3.648 E37.73282
G1 X-13.648 Y7.451 E38.30073
G1 X-12.508 Y7.451 E38.42118
G1 X-17.451 Y2.508 E39.15944
G1 X-17.451 Y1.367 E39.27990
G1 X-11.367 Y7.451 E40.18850
G1 X-10.227 Y7.451 E40.30895
G1 X-17.451 Y0.227 E41.38790
G1 X-17.451 Y-0.914 E41.50835
G1 X-9.086 Y7.451 E42.75764
G1 X-7.946 Y7.451 E42.87809
G1 X-17.451 Y-2.054 E44.29773
G1 X-17.451 Y-3.195 E44.41818
G1 X-6.805 Y7.451 E46.00816
G1 X-5.665 Y7.451 E46.12861
G1 X-17.451 Y-4.335 E47.88893
G1 X-17.451 Y-5.476 E48.00938
G1 X-4.524 Y7.451 E49.94005
G1 X-3.384 Y7.451 E50.06050
G1 X-17.451 Y-6.616 E52.16151
G1 X-17.145 Y-7.451 E52.25539
G1 X-2.243 Y7.451 E54.48107
G1 X-1.103 Y7.451 E54.60152
G1 X-16.004 Y-7.451 E56.82719
G1 X-14.864 Y-7.451 E56.94764
G1 X0.038 Y7.451 E59.17332
G1 X1.178 Y7.451 E59.29377
G1 X-13.723 Y-7.451 E61.51944
G1 X-12.583 Y-7.451 E61.63989
G1 X2.318 Y7.451 E63.86556
G1 X3.459 Y7.451 E63.98602
G1 X-11.442 Y-7.451 E66.21169
G1 X-10.302 Y-7.451 E66.33214
G1 X4.599 Y7.451 E68.55781
G1 X5.740 Y7.451 E68.67826
G1 X-9.161 Y-7.451 E70.90394
G1 X-8.021 Y-7.451 E71.02439
G1 X6.880 Y7.451 E73.25006
G1 X8.021 Y7.451 E73.37051
G1 X-6.880 Y-7.451 E75.59618
G1 X-5.740 Y-7.451 E75.71664
G1 X9.161 Y7.451 E77.94231
G1 X10.302 Y7.451 E78.06276
G1 X-4.599 Y-7.451 E80.28843
G1 X-3.459 Y-7.451 E80.40888
G1 X11.442 Y7.451 E82.63456
G1 X12.583 Y7.451 E82.75501
G1 X-2.318 Y-7.451 E84.98068
G1 X-1.178 Y-7.451 E85.10113
G1 X13.723 Y7.451 E87.32681
G1 X14.864 Y7.451 E87.44726
G1 X-0.038 Y-7.451 E89.67293
G1 X1.103 Y-7.451 E89.79338
G1 X16.004 Y7.451 E92.01905
G1 X17.145 Y7.451 E92.13950
G1 X2.243 Y-7.451 E94.36518
G1 X3.384 Y-7.451 E94.48563
G1 X17.451 Y6.616 E96.58664
G1 X17.451 Y5.476 E96.70709
G1 X4.524 Y-7.451 E98.63776
G1 X5.665 Y-7.451 E98.75821
G1 X17.451 Y4.335 E100.51854
G1 X17.451 Y3.195 E100.63899
G1 X6.805 Y-7.451 E102.22897
G1 X7.946 Y-7.451 E102.34942
G1 X17.451 Y2.054 E103.76906
G1 X17.451 Y0.914 E103.88951
G1 X9.086 Y-7.451 E105.13880
G1 X10.227 Y-7.451 E105.25925
G1 X17.451 Y-0.227 E106.33820
G1 X17.451 Y-1.367 E106.45865
G1 X11.367 Y-7.451 E107.36726
G1 X12.508 Y-7.451 E107.48771
G1 X17.451 Y-2.508 E108.22597
G1 X17.451 Y-3.648 E108.34642
G1 X13.648 Y-7.451 E108.91434
G1 X14.789 Y-7.451 E109.03479
G1 X17.451 Y-4.789 E109.43236
G1 X17.451 Y-5.929 E109.55281
G1 X15.929 Y-7.451 E109.78004
G1 X17.070 Y-7.451 E109.90050
G1 X17.451 Y-7.070 E109.95738
M104 S185 ; set temperature
G1 Z0.800 F7800.000
G1 X-18.696 Y8.696 F7800.000
G1 X-18.696 Y-8.696 E110.95122 F3600.000
G1 X18.696 Y-8.696 E113.08791
G1 X18.696 Y8.696 E114.08175
G1 X-18.621 Y8.696 E116.21415
G1 X-19.257 Y9.257 F7800.000
G1 X-19.257 Y-9.257 E117.27210 F3600.000
G1 X19.257 Y-9.257 E119.47291
G1 X19.257 Y9.257 E120.53086
G1 X-19.182 Y9.257 E122.72738
G1 X-19.750 Y9.750 F7800.000
G1 X-19.750 Y-9.750 E123.57132 F1800.000
G1 X19.750 Y-9.750 E125.28083
G1 X19.750 Y9.750 E126.12477
G1 X-19.675 Y9.750 E127.83104
G1 X-19.500 Y9.317 F7800.000
G1 X-18.080 Y-8.358 F7800.000
G1 X-18.358 Y-8.080 E127.85372 F1200.000
G1 X-18.358 Y-7.279 E127.89995
G1 X-17.279 Y-8.358 E127.98801
G1 X-16.478 Y-8.358 E128.03424
G1 X-18.358 Y-6.478 E128.18769
G1 X-18.358 Y-5.677 E128.23392
G1 X-15.677 Y-8.358 E128.45274
G1 X-14.876 Y-8.358 E128.49897
G1 X-18.358 Y-4.876 E128.78317
G1 X-18.358 Y-4.074 E128.82940
G1 X-14.074 Y-8.358 E129.17898
G1 X-13.273 Y-8.358 E129.22521
G1 X-18.358 Y-3.273 E129.64018
G1 X-18.358 Y-2.472 E129.68641
G1 X-12.472 Y-8.358 E130.16675
G1 X-11.671 Y-8.358 E130.21298
G1 X-18.358 Y-1.671 E130.75870
G1 X-18.358 Y-0.870 E130.80493
G1 X-10.870 Y-8.358 E131.41604
G1 X-10.069 Y-8.358 E131.46227
G1 X-18.358 Y-0.069 E132.13875
G1 X-18.358 Y0.733 E132.18498
G1 X-9.267 Y-8.358 E132.92684
G1 X-8.466 Y-8.358 E132.97307
G1 X-18.358 Y1.534 E133.78032
G1 X-18.358 Y2.335 E133.82655
G1 X-7.665 Y-8.358 E134.69917
G1 X-6.864 Y-8.358 E134.74540
G1 X-18.358 Y3.136 E135.68341
G1 X-18.358 Y3.937 E135.72964
G1 X-6.063 Y-8.358 E136.73302
G1 X-5.262 Y-8.358 E136.77925
G1 X-18.358 Y4.738 E137.84801
G1 X-18.358 Y5.540 E137.89424
G1 X-4.460 Y-8.358 E139.02839
G1 X-3.659 Y-8.358 E139.07462
G1 X-18.358 Y6.341 E140.27414
G1 X-18.358 Y7.142 E140.32037
G1 X-2.858 Y-8.358 E141.58528
G1 X-2.057 Y-8.358 E141.63151
G1 X-18.358 Y7.943 E142.96179
G1 X-17.972 Y8.358 E142.99450
G1 X-1.256 Y-8.358 E144.35867
G1 X-0.455 Y-8.358 E144.40490
G1 X-17.171 Y8.358 E145.76907
G1 X-16.370 Y8.358 E145.81530
G1 X0.347 Y-8.358 E147.17946
G1 X1.148 Y-8.358 E147.22569
G1 X-15.569 Y8.358 E148.58986
G1 X-14.768 Y8.358 E148.63609
G1 X1.949 Y-8.358 E150.00026
G1 X2.750 Y-8.358 E150.04649
G1 X-13.966 Y8.358 E151.41065
G1 X-13.165 Y8.358 E151.45689
G1 X3.551 Y-8.358 E152.82105
G1 X4.352 Y-8.358 E152.86728
G1 X-12.364 Y8.358 E154.23145
G1 X-11.563 Y8.358 E154.27768
G1 X5.154 Y-8.358 E155.64185
G1 X5.955 Y-8.358 E155.68808
G1 X-10.762 Y8.358 E157.05224
G1 X-9.961 Y8.358 E157.09847
G1 X6.756 Y-8.358 E158.46264
G1 X7.557 Y-8.358 E158.50887
G1 X-9.159 Y8.358 E159.87304
G1 X-8.358 Y8.358 E159.91927
G1 X8.358 Y-8.358 E161.28343
G1 X9.159 Y-8.358 E161.32967
G1 X-7.557 Y8.358 E162.69383
G1 X-6.756 Y8.358 E162.74006
G1 X9.961 Y-8.358 E164.10423
G1 X10.762 Y-8.358 E164.15046
G1 X-5.955 Y8.358 E165.51463
G1 X-5.154 Y8.358 E165.56086
G1 X11.563 Y-8.358 E166.92502
G1 X12.364 Y-8.358 E166.97125
G1 X-4.352 Y8.358 E168.33542
G1 X-3.551 Y8.358 E168.38165
G1 X13.165 Y-8.358 E169.74582
G1 X13.966 Y-8.358 E169.79205
G1 X-2.750 Y8.358 E171.15621
G1 X-1.949 Y8.358 E171.20245
G1 X14.768 Y-8.358 E172.56661
G1 X15.569 Y-8.358 E172.61284
G1 X-1.148 Y8.358 E173.97701
G1 X-0.347 Y8.358 E174.02324
G1 X16.370 Y-8.358 E175.38741
G1 X17.171 Y-8.358 E175.43364
G1 X0.455 Y8.358 E176.79780
G1 X1.256 Y8.358 E176.84403
G1 X17.972 Y-8.358 E178.20820
G1 X18.358 Y-7.943 E178.24091
G1 X2.057 Y8.358 E179.57120
G1 X2.858 Y8.358 E179.61743
G1 X18.358 Y-7.142 E180.88234
G1 X18.358 Y-6.341 E180.92857
G1 X3.659 Y8.358 E182.12810
G1 X4.460 Y8.358 E182.17433
G1 X18.358 Y-5.540 E183.30848
G1 X18.358 Y-4.738 E183.35471
G1 X5.262 Y8.358 E184.42348
G1 X6.063 Y8.358 E184.46971
G1 X18.358 Y-3.937 E185.47310
G1 X18.358 Y-3.136 E185.51933
G1 X6.864 Y8.358 E186.45734
G1 X7.665 Y8.358 E186.50357
G1 X18.358 Y-2.335 E187.37620
G1 X18.358 Y-1.534 E187.42243
G1 X8.466 Y8.358 E188.22968
G1 X9.267 Y8.358 E188.27591
G1 X18.358 Y-0.733 E189.01778
G1 X18.358 Y0.069 E189.06401
G1 X10.069 Y8.358 E189.74050
G1 X10.870 Y8.358 E189.78673
G1 X18.358 Y0.870 E190.39784
G1 X18.358 Y1.671 E190.44407
G1 X11.671 Y8.358 E190.98979
G1 X12.472 Y8.358 E191.03603
G1 X18.358 Y2.472 E191.51637
G1 X18.358 Y3.273 E191.56260
G1 X13.273 Y8.358 E191.97757
G1 X14.074 Y8.358 E192.02380
G1 X18.358 Y4.074 E192.37339
G1 X18.358 Y4.876 E192.41962
G1 X14.876 Y8.358 E192.70383
G1 X15.677 Y8.358 E192.75006
G1 X18.358 Y5.677 E192.96889
G1 X18.358 Y6.478 E193.01512
G1 X16.478 Y8.358 E193.16857
G1 X17.279 Y8.358 E193.21480
G1 X18.358 Y7.279 E193.30286
G1 X18.358 Y8.080 E193.34910
G1 X18.080 Y8.358 E193.37178
G1 Z1.150 F7800.000
G1 X-18.696 Y8.696 F7800.000
G1 X-18.696 Y-8.696 E194.36562 F3600.000
G1 X18.696 Y-8.696 E196.50231
G1 X18.696 Y8.696 E197.49615
G1 X-18.621 Y8.696 E199.62855
G1 X-19.257 Y9.257 F7800.000
G1 X-19.257 Y-9.257 E200.68650 F3600.000
G1 X19.257 Y-9.257 E202.88731
G1 X19.257 Y9.257 E203.94526
G1 X-19.182 Y9.257 E206.14178
G1 X-19.750 Y9.750 F7800.000
G1 X-19.750 Y-9.750 E206.98572 F1800.000
G1 X19.750 Y-9.750 E208.69523
G1 X19.750 Y9.750 E209.53917
G1 X-19.675 Y9.750 E211.24544
G1 X-19.500 Y9.317 F7800.000
G1 X-18.358 Y8.080 F7800.000
G1 X-18.080 Y8.358 E211.26812 F1200.000
G1 X-17.279 Y8.358 E211.31435
G1 X-18.358 Y7.279 E211.40241
G1 X-18.358 Y6.478 E211.44864
G1 X-16.478 Y8.358 E211.60209
G1 X-15.677 Y8.358 E211.64832
G1 X-18.358 Y5.677 E211.86714
G1 X-18.358 Y4.876 E211.91337
G1 X-14.876 Y8.358 E212.19757
G1 X-14.074 Y8.358 E212.24380
G1 X-18.358 Y4.074 E212.59338
G1 X-18.358 Y3.273 E212.63962
G1 X-13.273 Y8.358 E213.05458
G1 X-12.472 Y8.358 E213.10081
G1 X-18.358 Y2.472 E213.58115
G1 X-18.358 Y1.671 E213.62738
G1 X-11.671 Y8.358 E214.17310
G1 X-10.870 Y8.358 E214.21933
G1 X-18.358 Y0.870 E214.83044
G1 X-18.358 Y0.069 E214.87667
G1 X-10.069 Y8.358 E215.55315
G1 X-9.267 Y8.358 E215.59938
G1 X-18.358 Y-0.733 E216.34124
G1 X-18.358 Y-1.534 E216.38748
G1 X-8.466 Y8.358 E217.19472
G1 X-7.665 Y8.358 E217.24095
G1 X-18.358 Y-2.335 E218.11357
G1 X-18.358 Y-3.136 E218.15980
G1 X-6.864 Y8.358 E219.09781
G1 X-6.063 Y8.358 E219.14404
G1 X-18.358 Y-3.937 E220.14742
G1 X-18.358 Y-4.738 E220.19365
G1 X-5.262 Y8.358 E221.26241
G1 X-4.460 Y8.358 E221.30864
G1 X-18.358 Y-5.540 E222.44279
G1 X-18.358 Y-6.341 E222.48902
G1 X-3.659 Y8.358 E223.68854
G1 X-2.858 Y8.358 E223.73477
G1 X-18.358 Y-7.142 E224.99968
G1 X-18.358 Y-7.943 E225.04591
G1 X-2.057 Y8.358 E226.37619
G1 X-1.256 Y8.358 E226.42242
G1 X-17.972 Y-8.358 E227.78659
G1 X-17.171 Y-8.358 E227.83282
G1 X-0.455 Y8.358 E229.19699
G1 X0.347 Y8.358 E229.24322
G1 X-16.370 Y-8.358 E230.60738
G1 X-15.569 Y-8.358 E230.65361
G1 X1.148 Y8.358 E232.01778
G1 X1.949 Y8.358 E232.06401
G1 X-14.768 Y-8.358 E233.42818
G1 X-13.966 Y-8.358 E233.47441
G1 X2.750 Y8.358 E234.83857
G1 X3.551 Y8.358 E234.88480
G1 X-13.165 Y-8.358 E236.24897
G1 X-12.364 Y-8.358 E236.29520
G1 X4.352 Y8.358 E237.65937
G1 X5.154 Y8.358 E237.70560
G1 X-11.563 Y-8.358 E239.06977
G1 X-10.762 Y-8.358 E239.11600
G1 X5.955 Y8.358 E240.48016
G1 X6.756 Y8.358 E240.52639
G1 X-9.961 Y-8.358 E241.89056
G1 X-9.159 Y-8.358 E241.93679
G1 X7.557 Y8.358 E243.30096
G1 X8.358 Y8.358 E243.34719
G1 X-8.358 Y-8.358 E244.71135
G1 X-7.557 Y-8.358 E244.75758
G1 X9.159 Y8.358 E246.12175
G1 X9.961 Y8.358 E246.16798
G1 X-6.756 Y-8.358 E247.53215
G1 X-5.955 Y-8.358 E247.57838
G1 X10.762 Y8.358 E248.94255
G1 X11.563 Y8.358 E248.98878
G1 X-5.154 Y-8.358 E250.35294
G1 X-4.352 Y-8.358 E250.39917
G1 X12.364 Y8.358 E251.76334
G1 X13.165 Y8.358 E251.80957
G1 X-3.551 Y-8.358 E253.17374
G1 X-2.750 Y-8.358 E253.21997
G1 X13.966 Y8.358 E254.58413
G1 X14.768 Y8.358 E254.63036
G1 X-1.949 Y-8.358 E255.99453
G1 X-1.148 Y-8.358 E256.04076
G1 X15.569 Y8.358 E257.40493
G1 X16.370 Y8.358 E257.45116
G1 X-0.347 Y-8.358 E258.81533
G1 X0.455 Y-8.358 E258.86156
G1 X17.171 Y8.358 E260.22572
G1 X17.972 Y8.358 E260.27195
G1 X1.256 Y-8.358 E261.63612
G1 X2.057 Y-8.358 E261.68235
G1 X18.358 Y7.943 E263.01264
G1 X18.358 Y7.142 E263.05887
G1 X2.858 Y-8.358 E264.32378
G1 X3.659 Y-8.358 E264.37001
G1 X18.358 Y6.341 E265.56954
G1 X18.358 Y5.540 E265.61577
G1 X4.460 Y-8.358 E266.74992
G1 X5.262 Y-8.358 E266.79615
G1 X18.358 Y4.738 E267.86492
G1 X18.358 Y3.937 E267.91115
G1 X6.063 Y-8.358 E268.91454
G1 X6.864 Y-8.358 E268.96077
G1 X18.358 Y3.136 E269.89878
G1 X18.358 Y2.335 E269.94501
G1 X7.665 Y-8.358 E270.81764
G1 X8.466 Y-8.358 E270.86387
G1 X18.358 Y1.534 E271.67112
G1 X18.358 Y0.733 E271.71735
G1 X9.267 Y-8.358 E272.45922
G1 X10.069 Y-8.358 E272.50545
G1 X18.358 Y-0.069 E273.18194
G1 X18.358 Y-0.870 E273.22817
G1 X10.870 Y-8.358 E273.83928
G1 X11.671 Y-8.358 E273.88551
G1 X18.358 Y-1.671 E274.43123
G1 X18.358 Y-2.472 E274.47747
G1 X12.472 Y-8.358 E274.95781
G1 X13.273 Y-8.358 E275.00404
G1 X18.358 Y-3.273 E275.41901
G1 X18.358 Y-4.074 E275.46524
G1 X14.074 Y-8.358 E275.81483
G1 X14.876 Y-8.358 E275.86106
G1 X18.358 Y-4.876 E276.14527
G1 X18.358 Y-5.677 E276.19150
G1 X15.677 Y-8.358 E276.41033
G1 X16.478 Y-8.358 E276.45656
G1 X18.358 Y-6.478 E276.61001
G1 X18.358 Y-7.279 E276.65624
G1 X17.279 Y-8.358 E276.74431
G1 X18.080 Y-8.358 E276.79054
G1 X18.358 Y-8.080 E276.81322
M106 S219.3
G1 Z1.500 F7800.000
G1 X-18.696 Y8.696 F7800.000
G1 X-18.696 Y-8.696 E277.80706 F3600.000
G1 X18.696 Y-8.696 E279.94375
G1 X18.696 Y8.696 E280.93759
G1 X-18.621 Y8.696 E283.06999
G1 X-19.257 Y9.257 F7800.000
G1 X-19.257 Y-9.257 E284.12794 F3600.000
G1 X19.257 Y-9.257 E286.32875
G1 X19.257 Y9.257 E287.38670
G1 X-19.182 Y9.257 E289.58322
G1 X-19.750 Y9.750 F7800.000
G1 X-19.750 Y-9.750 E290.42716 F1800.000
G1 X19.750 Y-9.750 E292.13667
G1 X19.750 Y9.750 E292.98061
G1 X-19.675 Y9.750 E294.68688
G1 X-19.500 Y9.317 F7800.000
G1 X-18.358 Y-7.055 F7800.000
G1 X-17.055 Y-8.358 E294.79220 F4800.000
G1 X-15.733 Y-8.358 E294.86776
G1 X-18.358 Y-5.733 E295.07993
G1 X-18.358 Y-4.410 E295.15549
G1 X-14.410 Y-8.358 E295.47452
G1 X-13.088 Y-8.358 E295.55008
G1 X-18.358 Y-3.088 E295.97597
G1 X-18.358 Y-1.766 E296.05153
G1 X-11.766 Y-8.358 E296.58428
G1 X-10.444 Y-8.358 E296.65984
G1 X-18.358 Y-0.444 E297.29944
G1 X-18.358 Y0.879 E297.37500
G1 X-9.121 Y-8.358 E298.12146
G1 X-7.799 Y-8.358 E298.19702
G1 X-18.358 Y2.201 E299.05033
G1 X-18.358 Y3.523 E299.12589
G1 X-6.477 Y-8.358 E300.08607
G1 X-5.154 Y-8.358 E300.16163
G1 X-18.358 Y4.846 E301.22866
G1 X-18.358 Y6.168 E301.30422
G1 X-3.832 Y-8.358 E302.47810
G1 X-2.510 Y-8.358 E302.55366
G1 X-18.358 Y7.490 E303.83441
G1 X-17.904 Y8.358 E303.89039
G1 X-1.188 Y-8.358 E305.24128
G1 X0.135 Y-8.358 E305.31684
G1 X-16.582 Y8.358 E306.66774
G1 X-15.259 Y8.358 E306.74330
G1 X1.457 Y-8.358 E308.09419
G1 X2.779 Y-8.358 E308.16975
G1 X-13.937 Y8.358 E309.52064
G1 X-12.615 Y8.358 E309.59620
G1 X4.102 Y-8.358 E310.94709
G1 X5.424 Y-8.358 E311.02265
G1 X-11.293 Y8.358 E312.37355
G1 X-9.970 Y8.358 E312.44910
G1 X6.746 Y-8.358 E313.80000
G1 X8.068 Y-8.358 E313.87556
G1 X-8.648 Y8.358 E315.22645
G1 X-7.326 Y8.358 E315.30201
G1 X9.391 Y-8.358 E316.65290
G1 X10.713 Y-8.358 E316.72846
G1 X-6.003 Y8.358 E318.07935
G1 X-4.681 Y8.358 E318.15491
G1 X12.035 Y-8.358 E319.50581
G1 X13.358 Y-8.358 E319.58137
G1 X-3.359 Y8.358 E320.93226
G1 X-2.037 Y8.358 E321.00782
G1 X14.680 Y-8.358 E322.35871
G1 X16.002 Y-8.358 E322.43427
G1 X-0.714 Y8.358 E323.78516
G1 X0.608 Y8.358 E323.86072
G1 X17.324 Y-8.358 E325.21162
G1 X18.358 Y-8.070 E325.27295
G1 X1.930 Y8.358 E326.60052
G1 X3.253 Y8.358 E326.67608
G1 X18.358 Y-6.747 E327.89680
G1 X18.358 Y-5.425 E327.97236
G1 X4.575 Y8.358 E329.08622
G1 X5.897 Y8.358 E329.16178
G1 X18.358 Y-4.103 E330.16878
G1 X18.358 Y-2.781 E330.24434
G1 X7.219 Y8.358 E331.14449
G1 X8.542 Y8.358 E331.22005
G1 X18.358 Y-1.458 E332.01334
G1 X18.358 Y-0.136 E332.08890
G1 X9.864 Y8.358 E332.77534
